; generated by Slic3r 1.2.9 on 2017-01-01 at 14:00:51

; Perimeter Width ajustées au diamètre de buse de 0,4mm

; external perimeters extrusion width = 0.40mm
; perimeters extrusion width = 0.68mm
; infill extrusion width = 0.87mm
; solid infill extrusion width = 0.68mm
; top infill extrusion width = 0.68mm
; support material extrusion width = 0.18mm

M190 S90 ; set bed temperature
M104 S250 ; set temperature
G91 ;      coordonnees en relatif
G1 Z20 ; relevage de 20mm en Z
G90 ;      coordonnee en absolue
G28 ;      homing en X, Y et Z
G29 ;      Auto leveling


M109 S250 ; wait for temperature to be reached
G21 ; set units to millimeters
G90 ; use absolute coordinates
M82 ; use absolute distances for extrusion
G92 E0
G1 Z0.350 F10800.000
G1 E-1.00000 F1800.00000
G92 E0
G1 X16.814 Y13.441 F10800.000
G1 E1.00000 F1800.00000
G1 X17.131 Y13.070 E1.02867 F1800.000
G1 X17.760 Y12.420 E1.08177
G1 X18.108 Y12.098 E1.10965
G1 X18.916 Y11.445 E1.17065
G1 X19.216 Y11.229 E1.19239
G1 X20.461 Y10.480 E1.27774
G1 X21.690 Y9.926 E1.35693
G1 X21.979 Y9.820 E1.37499
G1 X23.042 Y9.501 E1.44018
G1 X23.413 Y9.416 E1.46254
G1 X24.272 Y9.264 E1.51378
G1 X25.543 Y9.158 E1.58868
G1 X174.189 Y9.152 E10.31947
G1 X175.396 Y9.224 E10.39052 F1800.000
G1 X176.553 Y9.409 E10.45934
G1 X177.719 Y9.718 E10.53015
G1 X177.965 Y9.801 E10.54544
G1 X178.767 Y10.111 E10.59595
G1 X179.758 Y10.595 E10.66071
G1 X180.451 Y11.008 E10.70813
G1 X180.842 Y11.269 E10.73571
G1 X181.559 Y11.814 E10.78862
G1 X181.922 Y12.124 E10.81665
G1 X182.581 Y12.760 E10.87043
G1 X182.901 Y13.107 E10.89815
G1 X183.554 Y13.915 E10.95919
G1 X183.771 Y14.217 E10.98101
G1 X184.525 Y15.470 E11.06690
G1 X185.070 Y16.679 E11.14479
G1 X185.180 Y16.981 E11.16368
G1 X185.496 Y18.029 E11.22799
G1 X185.564 Y18.321 E11.24558
G1 X185.736 Y19.273 E11.30240
G1 X185.775 Y19.586 E11.32094
G1 X185.842 Y20.544 E11.37734
G1 X185.850 Y21.000 E11.40413
G1 X185.850 Y169.000 E20.09700
G1 X185.842 Y169.447 E20.12329
G1 X185.777 Y170.394 E20.17899
G1 X185.592 Y171.553 E20.24793
G1 X185.535 Y171.807 E20.26322
G1 X185.277 Y172.735 E20.31980
G1 X184.889 Y173.769 E20.38468
G1 X184.409 Y174.752 E20.44895
G1 X183.992 Y175.451 E20.49675
G1 X183.722 Y175.855 E20.52529
G1 X183.186 Y176.559 E20.57724
G1 X182.881 Y176.917 E20.60489
G1 X182.163 Y177.653 E20.66525
G1 X181.890 Y177.905 E20.68709
G1 X180.995 Y178.620 E20.75435
G1 X180.787 Y178.769 E20.76940
G1 X179.676 Y179.447 E20.84585
G1 X178.325 Y180.068 E20.93316
G1 X178.019 Y180.180 E20.95229
G1 X176.959 Y180.499 E21.01730
G1 X176.588 Y180.584 E21.03968
G1 X175.414 Y180.775 E21.10956
G1 X160.303 Y182.029 E22.00016
G1 X159.409 Y182.066 E22.05270
G1 X120.805 Y182.065 E24.32014
G1 X25.553 Y180.842 E29.91532
G1 X24.500 Y180.765 E29.97729
G1 X23.198 Y180.537 E30.05494
G1 X22.036 Y180.200 E30.12599
G1 X21.234 Y179.890 E30.17651
G1 X20.790 Y179.686 E30.20517
G1 X20.239 Y179.404 E30.24155
G1 X19.548 Y178.991 E30.28881
G1 X19.149 Y178.724 E30.31703
G1 X18.441 Y178.186 E30.36927
G1 X18.075 Y177.873 E30.39757
G1 X17.420 Y177.240 E30.45107
G1 X17.100 Y176.895 E30.47869
G1 X16.446 Y176.085 E30.53982
G1 X16.236 Y175.794 E30.56090
G1 X15.552 Y174.676 E30.63789
G1 X14.925 Y173.307 E30.72633
G1 X14.820 Y173.020 E30.74426
G1 X14.500 Y171.954 E30.80965
G1 X14.416 Y171.587 E30.83177
G1 X14.226 Y170.415 E30.90151
G1 X14.158 Y169.456 E30.95796
G1 X14.150 Y169.000 E30.98477
G1 X14.152 Y20.812 E39.68866
G1 X14.224 Y19.605 E39.75971
G1 X14.409 Y18.447 E39.82858
G1 X14.719 Y17.277 E39.89965
G1 X14.801 Y17.034 E39.91475
G1 X15.110 Y16.235 E39.96503
G1 X15.597 Y15.238 E40.03025
G1 X16.009 Y14.548 E40.07743
G1 X16.262 Y14.169 E40.10420
G1 X16.778 Y13.489 E40.15433
G1 X17.141 Y13.712 F10800.000
G1 X17.448 Y13.352 E40.18212 F1800.000
G1 X18.052 Y12.728 E40.23314
G1 X18.390 Y12.415 E40.26019
G1 X19.167 Y11.788 E40.31881
G1 X19.459 Y11.578 E40.33997
G1 X20.660 Y10.855 E40.42225
G1 X21.841 Y10.323 E40.49834
G1 X22.122 Y10.220 E40.51596
G1 X23.144 Y9.913 E40.57860
G1 X23.504 Y9.831 E40.60031
G1 X24.329 Y9.685 E40.64954
G1 X25.554 Y9.583 E40.72173
G1 X174.181 Y9.577 E49.45144
G1 X175.348 Y9.646 E49.52010 F1800.000
G1 X176.464 Y9.824 E49.58645
G1 X177.587 Y10.122 E49.65471
G1 X178.593 Y10.498 E49.71782
G1 X179.554 Y10.968 E49.78062
G1 X180.220 Y11.365 E49.82617
G1 X180.592 Y11.613 E49.85244
G1 X181.363 Y12.204 E49.90950
G1 X181.640 Y12.442 E49.93093
G1 X182.273 Y13.053 E49.98260
G1 X182.589 Y13.395 E50.00997
G1 X183.211 Y14.166 E50.06814
G1 X183.422 Y14.460 E50.08939
G1 X184.145 Y15.661 E50.17172
G1 X184.673 Y16.829 E50.24703
G1 X184.780 Y17.124 E50.26545
G1 X185.084 Y18.131 E50.32723
G1 X185.169 Y18.503 E50.34964
G1 X185.343 Y19.550 E50.41196
G1 X185.417 Y20.555 E50.47117
G1 X185.425 Y169.000 E59.19019
G1 X185.417 Y169.437 E59.21584
G1 X185.354 Y170.346 E59.26936
G1 X185.122 Y171.711 E59.35071
G1 X184.873 Y172.603 E59.40509
G1 X184.499 Y173.600 E59.46765
G1 X184.036 Y174.548 E59.52962
G1 X183.635 Y175.220 E59.57556
G1 X183.374 Y175.612 E59.60322
G1 X182.859 Y176.288 E59.65314
G1 X182.563 Y176.635 E59.67995
G1 X181.871 Y177.345 E59.73819
G1 X181.607 Y177.587 E59.75919
G1 X180.744 Y178.277 E59.82407
G1 X180.544 Y178.420 E59.83855
G1 X179.477 Y179.072 E59.91201
G1 X178.175 Y179.671 E59.99619
G1 X177.876 Y179.780 E60.01483
G1 X176.858 Y180.086 E60.07731
G1 X176.497 Y180.169 E60.09903
G1 X175.365 Y180.352 E60.16638
G1 X160.268 Y181.606 E61.05619
G1 X159.409 Y181.641 E61.10668
G1 X120.810 Y181.640 E63.37379
G1 X25.563 Y180.417 E68.96866
G1 X24.548 Y180.342 E69.02843
G1 X23.293 Y180.123 E69.10326
G1 X22.173 Y179.798 E69.17175
G1 X21.403 Y179.500 E69.22030
G1 X20.976 Y179.304 E69.24785
G1 X20.443 Y179.031 E69.28303
G1 X19.779 Y178.635 E69.32844
G1 X19.392 Y178.376 E69.35579
G1 X18.712 Y177.858 E69.40598
G1 X18.357 Y177.555 E69.43342
G1 X17.727 Y176.947 E69.48482
G1 X17.417 Y176.612 E69.51163
G1 X16.789 Y175.835 E69.57036
G1 X16.585 Y175.551 E69.59087
G1 X15.928 Y174.476 E69.66487
G1 X15.322 Y173.157 E69.75015
G1 X15.220 Y172.877 E69.76761
G1 X14.913 Y171.853 E69.83044
G1 X14.831 Y171.496 E69.85193
G1 X14.648 Y170.367 E69.91915
G1 X14.583 Y169.445 E69.97339
G1 X14.575 Y169.000 E69.99955
G1 X14.577 Y20.820 E78.70302
G1 X14.646 Y19.653 E78.77169
G1 X14.824 Y18.536 E78.83808
G1 X15.123 Y17.409 E78.90658
G1 X15.203 Y17.171 E78.92132
G1 X15.500 Y16.404 E78.96965
G1 X15.970 Y15.442 E79.03254
G1 X16.365 Y14.779 E79.07787
G1 X16.610 Y14.412 E79.10381
G1 X17.105 Y13.760 E79.15186
G1 E78.15186 F1800.00000
G92 E0
G1 X29.750 Y24.750 F10800.000
G1 E1.00000 F1800.00000
G1 X29.750 Y165.250 E9.25235 F1800.000
G1 X109.750 Y165.250 E13.95120
G1 X109.750 Y169.750 E14.21551
G1 X26.003 Y169.750 E19.13444
G1 X25.702 Y169.721 E19.15223
G1 X25.573 Y169.667 E19.16040
G1 X25.454 Y169.579 E19.16910
G1 X25.305 Y169.373 E19.18403
G1 X25.263 Y169.228 E19.19293
G1 X25.250 Y168.993 E19.20674
G1 X25.250 Y21.003 E27.89902
G1 X25.279 Y20.702 E27.91680
G1 X25.332 Y20.573 E27.92498
G1 X25.421 Y20.454 E27.93368
G1 X25.627 Y20.305 E27.94861
G1 X25.772 Y20.263 E27.95751
G1 X26.007 Y20.250 E27.97132
G1 X174.001 Y20.250 E36.66381
G1 X174.298 Y20.279 E36.68138
G1 X174.427 Y20.332 E36.68956
G1 X174.546 Y20.421 E36.69825
G1 X174.695 Y20.627 E36.71319
G1 X174.737 Y20.772 E36.72209
G1 X174.750 Y21.007 E36.73590
G1 X174.750 Y168.997 E45.42817
G1 X174.721 Y169.298 E45.44596
G1 X174.667 Y169.427 E45.45414
G1 X174.579 Y169.546 E45.46283
G1 X174.373 Y169.695 E45.47779
G1 X174.157 Y169.745 E45.49084
G1 X165.250 Y169.750 E46.01399
G1 X165.250 Y165.250 E46.27829
G1 X170.250 Y165.250 E46.57197
G1 X170.250 Y24.750 E54.82432
G1 X29.810 Y24.750 E63.07315
G1 X29.350 Y24.750 F10800.000
G1 X29.325 Y24.325 F10800.000
G1 X29.325 Y165.675 E71.37542 F1800.000
G1 X109.325 Y165.675 E76.07427
G1 X109.325 Y169.325 E76.28867
G1 X26.008 Y169.325 E81.18233
G1 X25.820 Y169.310 E81.19341
G1 X25.748 Y169.268 E81.19833
G1 X25.701 Y169.212 E81.20261
G1 X25.685 Y169.156 E81.20606
G1 X25.675 Y168.981 E81.21635
G1 X25.675 Y21.008 E89.90761
G1 X25.690 Y20.820 E89.91869
G1 X25.732 Y20.748 E89.92361
G1 X25.788 Y20.701 E89.92788
G1 X25.844 Y20.685 E89.93134
G1 X26.019 Y20.675 E89.94163
G1 X173.995 Y20.675 E98.63310
G1 X174.180 Y20.690 E98.64397
G1 X174.252 Y20.732 E98.64889
G1 X174.299 Y20.788 E98.65316
G1 X174.315 Y20.844 E98.65662
G1 X174.325 Y21.019 E98.66691
G1 X174.325 Y168.992 E107.35817
G1 X174.310 Y169.180 E107.36925
G1 X174.268 Y169.252 E107.37417
G1 X174.202 Y169.307 E107.37919
G1 X174.121 Y169.321 E107.38402
G1 X165.675 Y169.325 E107.88013
G1 X165.675 Y165.675 E108.09451
G1 X170.675 Y165.675 E108.38819
G1 X170.675 Y24.325 E116.69045
G1 X29.385 Y24.325 E124.98920
G1 X28.900 Y23.900 F10800.000
G1 X28.900 Y166.100 E133.34138 F1800.000
G1 X108.900 Y166.100 E138.04022
G1 X108.900 Y168.900 E138.20471
G1 X26.100 Y168.900 E143.06804
G1 X26.100 Y21.100 E151.74919
G1 X173.900 Y21.100 E160.43034
G1 X173.900 Y168.896 E169.11123
G1 X166.100 Y168.900 E169.56939
G1 X166.100 Y166.100 E169.73385
G1 X171.100 Y166.100 E170.02753
G1 X171.100 Y23.900 E178.37970
G1 X28.960 Y23.900 E186.72836
G1 X28.886 Y23.585 F10800.000
G1 X26.715 Y21.415 E186.90873 F1800.000
G1 X27.316 Y21.415 E186.94404
G1 X29.487 Y23.585 E187.12442
G1 X30.088 Y23.585 E187.15973
G1 X27.917 Y21.415 E187.34010
G1 X28.518 Y21.415 E187.37541
G1 X30.689 Y23.585 E187.55578
G1 X31.290 Y23.585 E187.59109
G1 X29.119 Y21.415 E187.77147
G1 X29.720 Y21.415 E187.80678
G1 X31.891 Y23.585 E187.98715
G1 X32.492 Y23.585 E188.02246
G1 X30.321 Y21.415 E188.20283
G1 X30.922 Y21.415 E188.23814
G1 X33.093 Y23.585 E188.41852
G1 X33.694 Y23.585 E188.45383
G1 X31.523 Y21.415 E188.63420
G1 X32.124 Y21.415 E188.66951
G1 X34.295 Y23.585 E188.84988
G1 X34.896 Y23.585 E188.88519
G1 X32.725 Y21.415 E189.06556
G1 X33.326 Y21.415 E189.10087
G1 X35.497 Y23.585 E189.28125
G1 X36.098 Y23.585 E189.31656
G1 X33.927 Y21.415 E189.49693
G1 X34.528 Y21.415 E189.53224
G1 X36.699 Y23.585 E189.71261
G1 X37.300 Y23.585 E189.74792
G1 X35.129 Y21.415 E189.92830
G1 X35.730 Y21.415 E189.96361
G1 X37.901 Y23.585 E190.14398
G1 X38.502 Y23.585 E190.17929
G1 X36.331 Y21.415 E190.35966
G1 X36.932 Y21.415 E190.39497
G1 X39.103 Y23.585 E190.57535
G1 X39.704 Y23.585 E190.61066
G1 X37.533 Y21.415 E190.79103
G1 X38.134 Y21.415 E190.82634
G1 X40.305 Y23.585 E191.00671
G1 X40.906 Y23.585 E191.04202
G1 X38.735 Y21.415 E191.22239
G1 X39.336 Y21.415 E191.25770
G1 X41.507 Y23.585 E191.43808
G1 X42.108 Y23.585 E191.47339
G1 X39.937 Y21.415 E191.65376
G1 X40.538 Y21.415 E191.68907
G1 X42.709 Y23.585 E191.86944
G1 X43.310 Y23.585 E191.90475
G1 X41.139 Y21.415 E192.08513
G1 X41.741 Y21.415 E192.12044
G1 X43.911 Y23.585 E192.30081
G1 X44.513 Y23.585 E192.33612
G1 X42.342 Y21.415 E192.51649
G1 X42.943 Y21.415 E192.55180
G1 X45.114 Y23.585 E192.73217
G1 X45.715 Y23.585 E192.76748
G1 X43.544 Y21.415 E192.94786
G1 X44.145 Y21.415 E192.98317
G1 X46.316 Y23.585 E193.16354
G1 X46.917 Y23.585 E193.19885
G1 X44.746 Y21.415 E193.37922
G1 X45.347 Y21.415 E193.41453
G1 X47.518 Y23.585 E193.59490
G1 X48.119 Y23.585 E193.63021
G1 X45.948 Y21.415 E193.81059
G1 X46.549 Y21.415 E193.84590
G1 X48.720 Y23.585 E194.02627
G1 X49.321 Y23.585 E194.06158
G1 X47.150 Y21.415 E194.24195
G1 X47.751 Y21.415 E194.27726
G1 X49.922 Y23.585 E194.45763
G1 X50.523 Y23.585 E194.49294
G1 X48.352 Y21.415 E194.67332
G1 X48.953 Y21.415 E194.70863
G1 X51.124 Y23.585 E194.88900
G1 X51.725 Y23.585 E194.92431
G1 X49.554 Y21.415 E195.10468
G1 X50.155 Y21.415 E195.13999
G1 X52.326 Y23.585 E195.32036
G1 X52.927 Y23.585 E195.35567
G1 X50.756 Y21.415 E195.53605
G1 X51.357 Y21.415 E195.57136
G1 X53.528 Y23.585 E195.75173
G1 X54.129 Y23.585 E195.78704
G1 X51.958 Y21.415 E195.96741
G1 X52.559 Y21.415 E196.00272
G1 X54.730 Y23.585 E196.18309
G1 X55.331 Y23.585 E196.21840
G1 X53.160 Y21.415 E196.39878
G1 X53.761 Y21.415 E196.43409
G1 X55.932 Y23.585 E196.61446
G1 X56.533 Y23.585 E196.64977
G1 X54.362 Y21.415 E196.83014
G1 X54.963 Y21.415 E196.86545
G1 X57.134 Y23.585 E197.04582
G1 X57.735 Y23.585 E197.08113
G1 X55.564 Y21.415 E197.26151
G1 X56.165 Y21.415 E197.29682
G1 X58.336 Y23.585 E197.47719
G1 X58.937 Y23.585 E197.51250
G1 X56.766 Y21.415 E197.69287
G1 X57.367 Y21.415 E197.72818
G1 X59.538 Y23.585 E197.90855
G1 X60.139 Y23.585 E197.94386
G1 X57.968 Y21.415 E198.12423
G1 X58.569 Y21.415 E198.15954
G1 X60.740 Y23.585 E198.33992
G1 X61.341 Y23.585 E198.37523
G1 X59.170 Y21.415 E198.55560
G1 X59.771 Y21.415 E198.59091
G1 X61.942 Y23.585 E198.77128
G1 X62.543 Y23.585 E198.80659
G1 X60.372 Y21.415 E198.98696
G1 X60.973 Y21.415 E199.02227
G1 X63.144 Y23.585 E199.20264
G1 X63.745 Y23.585 E199.23795
G1 X61.574 Y21.415 E199.41833
G1 X62.175 Y21.415 E199.45364
G1 X64.346 Y23.585 E199.63401
G1 X64.947 Y23.585 E199.66932
G1 X62.776 Y21.415 E199.84969
G1 X63.377 Y21.415 E199.88500
G1 X65.548 Y23.585 E200.06537
G1 X66.149 Y23.585 E200.10068
G1 X63.978 Y21.415 E200.28105
G1 X64.580 Y21.415 E200.31636
G1 X66.750 Y23.585 E200.49674
G1 X67.351 Y23.585 E200.53205
G1 X65.181 Y21.415 E200.71242
G1 X65.782 Y21.415 E200.74773
G1 X67.953 Y23.585 E200.92810
G1 X68.554 Y23.585 E200.96341
G1 X66.383 Y21.415 E201.14378
G1 X66.984 Y21.415 E201.17909
G1 X69.155 Y23.585 E201.35946
G1 X69.756 Y23.585 E201.39477
G1 X67.585 Y21.415 E201.57515
G1 X68.186 Y21.415 E201.61046
G1 X70.357 Y23.585 E201.79083
G1 X70.958 Y23.585 E201.82614
G1 X68.787 Y21.415 E202.00651
G1 X69.388 Y21.415 E202.04182
G1 X71.559 Y23.585 E202.22219
G1 X72.160 Y23.585 E202.25750
G1 X69.989 Y21.415 E202.43787
G1 X70.590 Y21.415 E202.47318
G1 X72.761 Y23.585 E202.65355
G1 X73.362 Y23.585 E202.68886
G1 X71.191 Y21.415 E202.86924
G1 X71.792 Y21.415 E202.90455
G1 X73.963 Y23.585 E203.08492
G1 X74.564 Y23.585 E203.12023
G1 X72.393 Y21.415 E203.30060
G1 X72.994 Y21.415 E203.33591
G1 X75.165 Y23.585 E203.51628
G1 X75.766 Y23.585 E203.55159
G1 X73.595 Y21.415 E203.73196
G1 X74.196 Y21.415 E203.76727
G1 X76.367 Y23.585 E203.94764
G1 X76.968 Y23.585 E203.98295
G1 X74.797 Y21.415 E204.16333
G1 X75.398 Y21.415 E204.19864
G1 X77.569 Y23.585 E204.37901
G1 X78.170 Y23.585 E204.41432
G1 X75.999 Y21.415 E204.59469
G1 X76.600 Y21.415 E204.63000
G1 X78.771 Y23.585 E204.81037
G1 X79.372 Y23.585 E204.84568
G1 X77.201 Y21.415 E205.02605
G1 X77.802 Y21.415 E205.06136
G1 X79.973 Y23.585 E205.24173
G1 X80.574 Y23.585 E205.27704
G1 X78.403 Y21.415 E205.45741
G1 X79.004 Y21.415 E205.49272
G1 X81.175 Y23.585 E205.67310
G1 X81.776 Y23.585 E205.70841
G1 X79.605 Y21.415 E205.88878
G1 X80.206 Y21.415 E205.92409
G1 X82.377 Y23.585 E206.10446
G1 X82.978 Y23.585 E206.13977
G1 X80.807 Y21.415 E206.32014
G1 X81.408 Y21.415 E206.35545
G1 X83.579 Y23.585 E206.53582
G1 X84.180 Y23.585 E206.57113
G1 X82.009 Y21.415 E206.75150
G1 X82.610 Y21.415 E206.78681
G1 X84.781 Y23.585 E206.96718
G1 X85.382 Y23.585 E207.00249
G1 X83.211 Y21.415 E207.18286
G1 X83.812 Y21.415 E207.21817
G1 X85.983 Y23.585 E207.39855
G1 X86.584 Y23.585 E207.43386
G1 X84.413 Y21.415 E207.61423
G1 X85.014 Y21.415 E207.64954
G1 X87.185 Y23.585 E207.82991
G1 X87.786 Y23.585 E207.86522
G1 X85.615 Y21.415 E208.04559
G1 X86.216 Y21.415 E208.08090
G1 X88.387 Y23.585 E208.26127
G1 X88.988 Y23.585 E208.29658
G1 X86.817 Y21.415 E208.47695
G1 X87.418 Y21.415 E208.51226
G1 X89.589 Y23.585 E208.69263
G1 X90.190 Y23.585 E208.72794
G1 X88.020 Y21.415 E208.90831
G1 X88.621 Y21.415 E208.94362
G1 X90.791 Y23.585 E209.12399
G1 X91.393 Y23.585 E209.15930
G1 X89.222 Y21.415 E209.33968
G1 X89.823 Y21.415 E209.37499
G1 X91.994 Y23.585 E209.55536
G1 X92.595 Y23.585 E209.59067
G1 X90.424 Y21.415 E209.77104
G1 X91.025 Y21.415 E209.80635
G1 X93.196 Y23.585 E209.98672
G1 X93.797 Y23.585 E210.02203
G1 X91.626 Y21.415 E210.20240
G1 X92.227 Y21.415 E210.23771
G1 X94.398 Y23.585 E210.41808
G1 X94.999 Y23.585 E210.45339
G1 X92.828 Y21.415 E210.63376
G1 X93.429 Y21.415 E210.66907
G1 X95.600 Y23.585 E210.84944
G1 X96.201 Y23.585 E210.88475
G1 X94.030 Y21.415 E211.06512
G1 X94.631 Y21.415 E211.10043
G1 X96.802 Y23.585 E211.28080
G1 X97.403 Y23.585 E211.31611
G1 X95.232 Y21.415 E211.49648
G1 X95.833 Y21.415 E211.53179
G1 X98.004 Y23.585 E211.71216
G1 X98.605 Y23.585 E211.74747
