; generated by Slic3r 1.2.9 on 2017-01-01 at 13:51:56

; Perimeter Width ajustées au diamètre de buse de 0,4mm

; external perimeters extrusion width = 0.40mm
; perimeters extrusion width = 0.68mm
; infill extrusion width = 0.87mm
; solid infill extrusion width = 0.68mm
; top infill extrusion width = 0.68mm

M190 S90 ; set bed temperature
M104 S250 ; set temperature
G91 ;      coordonnees en relatif
G1 Z20 ; relevage de 20mm en Z
G90 ;      coordonnee en absolue
G28 ;      homing en X, Y et Z
G29 ;      Auto leveling


M109 S250 ; wait for temperature to be reached
G21 ; set units to millimeters
G90 ; use absolute coordinates
M82 ; use absolute distances for extrusion
G92 E0
G1 Z0.350 F10800.000
G1 E-1.00000 F1800.00000
G92 E0
G1 X16.747 Y13.550 F10800.000
G1 E1.00000 F1800.00000
G1 X17.924 Y12.096 E1.10988 F1800.000
G1 X20.318 Y10.391 E1.28252
G1 X23.082 Y9.391 E1.45517
G1 X25.356 Y9.150 E1.58948
G1 X174.641 Y9.150 E10.35782
G1 X177.553 Y9.548 E10.53046
G1 X180.252 Y10.714 E10.70311 F1800.000
G1 X182.539 Y12.560 E10.87575
G1 X184.246 Y14.953 E11.04840
G1 X185.248 Y17.717 E11.22104
G1 X185.491 Y19.988 E11.35522
G1 X185.483 Y168.492 E20.07768
G1 X185.423 Y169.352 E20.12835
G1 X185.356 Y169.893 E20.16035
G1 X185.268 Y170.418 E20.19161
G1 X185.139 Y171.013 E20.22736
G1 X184.838 Y172.047 E20.29059
G1 X184.452 Y173.061 E20.35438
G1 X184.150 Y173.705 E20.39610
G1 X183.812 Y174.330 E20.43784
G1 X183.492 Y174.859 E20.47416
G1 X183.037 Y175.515 E20.52106
G1 X182.347 Y176.363 E20.58529
G1 X181.673 Y177.061 E20.64230
G1 X180.989 Y177.666 E20.69587
G1 X180.393 Y178.125 E20.74009
G1 X179.951 Y178.428 E20.77153
G1 X178.887 Y179.054 E20.84408
G1 X178.376 Y179.307 E20.87757
G1 X177.218 Y179.778 E20.95101
G1 X176.763 Y179.928 E20.97915
G1 X175.694 Y180.210 E21.04408
G1 X175.026 Y180.332 E21.08394
G1 X174.390 Y180.419 E21.12167
G1 X173.368 Y180.489 E21.18180
G1 X26.639 Y180.489 E29.80003
G1 X25.548 Y180.412 E29.86430
G1 X24.624 Y180.271 E29.91914
G1 X23.533 Y180.017 E29.98497
G1 X22.988 Y179.848 E30.01849
G1 X21.761 Y179.371 E30.09582
G1 X21.177 Y179.087 E30.13396
G1 X20.226 Y178.543 E30.19830
G1 X19.675 Y178.172 E30.23735
G1 X19.037 Y177.686 E30.28440
G1 X18.675 Y177.381 E30.31219
G1 X17.865 Y176.593 E30.37859
G1 X17.227 Y175.858 E30.43576
G1 X16.746 Y175.213 E30.48301
G1 X16.449 Y174.763 E30.51471
G1 X16.049 Y174.086 E30.56088
G1 X15.716 Y173.430 E30.60407
G1 X15.372 Y172.627 E30.65539
G1 X15.083 Y171.808 E30.70640
G1 X14.926 Y171.266 E30.73954
G1 X14.725 Y170.370 E30.79349
G1 X14.585 Y169.424 E30.84966
G1 X14.522 Y168.587 E30.89893
G1 X14.507 Y168.016 E30.93251
G1 X14.507 Y19.990 E39.62689
G1 X14.907 Y17.078 E39.79953
G1 X16.075 Y14.381 E39.97218
G1 X16.709 Y13.597 E40.03142
G1 X17.069 Y13.818 F10800.000
G1 X18.341 Y12.289 E40.14825 F1800.000
G1 X20.719 Y10.663 E40.31746
G1 X23.452 Y9.751 E40.48668
G1 X25.356 Y9.575 E40.59900
G1 X174.641 Y9.575 E49.36734
G1 X177.495 Y9.973 E49.53655
G1 X180.130 Y11.137 E49.70577 F1800.000
G1 X182.346 Y12.978 E49.87498
G1 X183.974 Y15.355 E50.04419
G1 X184.889 Y18.087 E50.21341
G1 X185.066 Y19.989 E50.32561
G1 X185.058 Y168.473 E59.04695
G1 X185.001 Y169.308 E59.09608
G1 X184.935 Y169.830 E59.12700
G1 X184.850 Y170.339 E59.15730
G1 X184.726 Y170.911 E59.19170
G1 X184.435 Y171.912 E59.25291
G1 X184.061 Y172.894 E59.31463
G1 X183.772 Y173.512 E59.35471
G1 X183.444 Y174.119 E59.39523
G1 X183.134 Y174.630 E59.43032
G1 X182.697 Y175.260 E59.47538
G1 X182.029 Y176.081 E59.53753
G1 X181.380 Y176.753 E59.59239
G1 X180.719 Y177.338 E59.64427
G1 X180.145 Y177.779 E59.68675
G1 X179.719 Y178.071 E59.71710
G1 X178.692 Y178.676 E59.78711
G1 X178.194 Y178.923 E59.81980
G1 X177.077 Y179.377 E59.89061
G1 X176.633 Y179.523 E59.91802
G1 X175.606 Y179.794 E59.98040
G1 X174.961 Y179.912 E60.01893
G1 X174.342 Y179.997 E60.05564
G1 X173.359 Y180.064 E60.11353
G1 X26.648 Y180.064 E68.73068
G1 X25.599 Y179.990 E68.79246
G1 X24.699 Y179.853 E68.84590
G1 X23.650 Y179.609 E68.90915
G1 X23.125 Y179.445 E68.94148
G1 X21.938 Y178.985 E69.01627
G1 X21.369 Y178.708 E69.05343
G1 X20.455 Y178.185 E69.11524
G1 X19.919 Y177.824 E69.15320
G1 X19.307 Y177.358 E69.19842
G1 X18.956 Y177.062 E69.22538
G1 X18.175 Y176.304 E69.28929
G1 X17.558 Y175.591 E69.34466
G1 X17.096 Y174.972 E69.39006
G1 X16.809 Y174.537 E69.42067
G1 X16.421 Y173.880 E69.46546
G1 X16.100 Y173.250 E69.50696
G1 X15.768 Y172.472 E69.55669
G1 X15.488 Y171.681 E69.60598
G1 X15.337 Y171.159 E69.63791
G1 X15.143 Y170.291 E69.69011
G1 X15.008 Y169.377 E69.74442
G1 X14.946 Y168.570 E69.79193
G1 X14.932 Y168.016 E69.82448
G1 X14.932 Y19.991 E78.51884
G1 X15.332 Y17.138 E78.68805
G1 X16.498 Y14.503 E78.85727
G1 X17.030 Y13.864 E78.90613
G1 E77.90613 F1800.00000
G92 E0
G1 X30.250 Y39.750 F10800.000
G1 E1.00000 F1800.00000
G1 X25.606 Y39.750 E1.27275 F1800.000
G1 X25.606 Y20.250 E2.41809
G1 X174.391 Y20.250 E11.15707
G1 X174.391 Y39.750 E12.30242
G1 X169.750 Y39.750 E12.57502
G1 X169.750 Y70.250 E14.36646
G1 X174.394 Y70.250 E14.63920
G1 X174.391 Y119.750 E17.54662
G1 X169.750 Y119.750 E17.81922
G1 X169.750 Y150.250 E19.61066
G1 X174.394 Y150.250 E19.88340
G1 X174.393 Y168.010 E20.92655
G1 X174.367 Y168.317 E20.94464
G1 X174.294 Y168.574 E20.96035
G1 X174.151 Y168.859 E20.97905
G1 X174.029 Y169.012 E20.99057
G1 X173.889 Y169.128 E21.00122
G1 X173.620 Y169.277 E21.01926
G1 X173.410 Y169.347 E21.03231
G1 X173.104 Y169.392 E21.05043
G1 X155.250 Y169.391 E22.09912
G1 X155.250 Y164.750 E22.37172
G1 X124.750 Y164.750 E24.16316
G1 X124.750 Y169.394 E24.43591
G1 X75.250 Y169.391 E27.34332
G1 X75.250 Y164.750 E27.61592
G1 X44.750 Y164.750 E29.40736
G1 X44.750 Y169.394 E29.68010
G1 X26.882 Y169.391 E30.72959
G1 X26.591 Y169.346 E30.74688
G1 X26.374 Y169.275 E30.76031
G1 X26.212 Y169.195 E30.77091
G1 X25.997 Y169.037 E30.78658
G1 X25.845 Y168.853 E30.80058
G1 X25.709 Y168.582 E30.81838
G1 X25.634 Y168.317 E30.83457
G1 X25.607 Y168.005 E30.85297
G1 X25.609 Y150.250 E31.89581
G1 X30.250 Y150.250 E32.16842
G1 X30.250 Y119.750 E33.95985
G1 X25.606 Y119.750 E34.23260
G1 X25.609 Y70.250 E37.14001
G1 X30.250 Y70.250 E37.41261
G1 X30.250 Y39.810 E39.20053
G1 X30.250 Y39.350 F10800.000
G1 X30.675 Y39.325 F10800.000
G1 X26.031 Y39.325 E39.47327 F1800.000
G1 X26.031 Y20.675 E40.56870
G1 X173.967 Y20.675 E49.25780
G1 X173.966 Y39.325 E50.35324
G1 X169.325 Y39.325 E50.62584
G1 X169.325 Y70.675 E52.46719
G1 X173.969 Y70.675 E52.73994
G1 X173.966 Y119.325 E55.59744
G1 X169.325 Y119.325 E55.87004
G1 X169.325 Y150.675 E57.71139
G1 X173.969 Y150.675 E57.98414
G1 X173.968 Y167.992 E59.00126
G1 X173.947 Y168.240 E59.01587
G1 X173.896 Y168.419 E59.02685
G1 X173.792 Y168.628 E59.04057
G1 X173.724 Y168.713 E59.04691
G1 X173.648 Y168.776 E59.05270
G1 X173.449 Y168.886 E59.06605
G1 X173.311 Y168.932 E59.07461
G1 X173.073 Y168.967 E59.08872
G1 X155.675 Y168.966 E60.11063
G1 X155.675 Y164.325 E60.38323
G1 X124.325 Y164.325 E62.22458
G1 X124.325 Y168.969 E62.49732
G1 X75.675 Y168.966 E65.35482
G1 X75.675 Y164.325 E65.62743
G1 X44.325 Y164.325 E67.46878
G1 X44.325 Y168.969 E67.74152
G1 X26.915 Y168.966 E68.76414
G1 X26.691 Y168.932 E68.77744
G1 X26.536 Y168.881 E68.78703
G1 X26.291 Y168.725 E68.80405
G1 X26.194 Y168.608 E68.81302
G1 X26.111 Y168.442 E68.82390
G1 X26.054 Y168.240 E68.83620
G1 X26.032 Y167.986 E68.85117
G1 X26.034 Y150.675 E69.86797
G1 X30.675 Y150.675 E70.14058
G1 X30.675 Y119.325 E71.98193
G1 X26.031 Y119.325 E72.25467
G1 X26.034 Y70.675 E75.11217
G1 X30.675 Y70.675 E75.38478
G1 X30.675 Y39.385 E77.22260
G1 X31.100 Y38.900 F10800.000
G1 X26.456 Y38.900 E77.49535 F1800.000
G1 X26.456 Y21.100 E78.54087
G1 X173.543 Y21.100 E87.18008
G1 X173.542 Y38.900 E88.22560
G1 X168.900 Y38.900 E88.49821
G1 X168.900 Y71.100 E90.38947
G1 X173.544 Y71.100 E90.66222
G1 X173.541 Y118.900 E93.46980
G1 X168.900 Y118.900 E93.74241
G1 X168.900 Y151.100 E95.63367
G1 X173.544 Y151.100 E95.90642
G1 X173.544 Y167.974 E96.89752
G1 X173.527 Y168.162 E96.90864
G1 X173.423 Y168.415 E96.92466
G1 X173.278 Y168.495 E96.93441
G1 X173.042 Y168.542 E96.94854
G1 X156.100 Y168.541 E97.94366
G1 X156.100 Y163.900 E98.21627
G1 X123.900 Y163.900 E100.10753
G1 X123.900 Y168.544 E100.38027
G1 X76.100 Y168.541 E103.18786
G1 X76.100 Y163.900 E103.46047
G1 X43.900 Y163.900 E105.35173
G1 X43.900 Y168.544 E105.62446
G1 X26.947 Y168.541 E106.62021
G1 X26.697 Y168.487 E106.63524
G1 X26.585 Y168.414 E106.64310
G1 X26.513 Y168.302 E106.65093
G1 X26.474 Y168.164 E106.65934
G1 X26.457 Y167.968 E106.67089
G1 X26.458 Y151.100 E107.66165
G1 X31.100 Y151.100 E107.93426
G1 X31.100 Y118.900 E109.82552
G1 X26.456 Y118.900 E110.09826
G1 X26.459 Y71.100 E112.90585
G1 X31.100 Y71.100 E113.17846
G1 X31.100 Y38.960 E115.06620
G1 E114.06620 F1800.00000
G92 E0
G1 X109.953 Y149.693 F10800.000
G1 E1.00000 F1800.00000
G1 X154.693 Y104.953 E4.71633 F1800.000
G1 X155.086 Y105.165 E4.74255
G1 X154.638 Y107.346 E4.87337
G1 X154.117 Y109.459 E5.00114
G1 X153.515 Y111.549 E5.12892
G1 X152.832 Y113.615 E5.25669
G1 X152.069 Y115.652 E5.38447
G1 X151.228 Y117.658 E5.51224
G1 X150.310 Y119.630 E5.64002
G1 X149.315 Y121.565 E5.76779
G1 X148.247 Y123.460 E5.89557
G1 X147.105 Y125.312 E6.02334
G1 X145.893 Y127.118 E6.15112
G1 X144.611 Y128.876 E6.27889
G1 X143.262 Y130.582 E6.40666
G1 X141.848 Y132.235 E6.53444
G1 X140.370 Y133.832 E6.66221
G1 X138.832 Y135.370 E6.78999
G1 X137.235 Y136.848 E6.91776
G1 X135.582 Y138.262 E7.04554
G1 X133.876 Y139.611 E7.17331
G1 X132.118 Y140.893 E7.30109
G1 X130.312 Y142.105 E7.42886
G1 X128.460 Y143.247 E7.55664
G1 X126.565 Y144.315 E7.68441
G1 X124.630 Y145.310 E7.81219
G1 X122.658 Y146.228 E7.93996
G1 X120.652 Y147.069 E8.06773
G1 X118.615 Y147.832 E8.19551
G1 X116.549 Y148.515 E8.32328
G1 X114.459 Y149.117 E8.45106
G1 X112.346 Y149.638 E8.57883
G1 X110.165 Y150.086 E8.70966
G1 X109.982 Y149.746 E8.73235
G1 X109.699 Y149.384 F10800.000
G1 X109.429 Y149.616 F10800.000
G1 X154.616 Y104.429 E12.48582 F1800.000
G1 X155.566 Y104.941 E12.54918
G1 X155.052 Y107.440 E12.69906
G1 X154.528 Y109.568 E12.82780
G1 X153.921 Y111.675 E12.95655
G1 X153.233 Y113.756 E13.08529
G1 X152.464 Y115.809 E13.21403
G1 X151.617 Y117.830 E13.34278
G1 X150.691 Y119.817 E13.47152
G1 X149.689 Y121.767 E13.60027
G1 X148.613 Y123.676 E13.72901
G1 X147.463 Y125.542 E13.85775
G1 X146.241 Y127.362 E13.98650
G1 X144.949 Y129.133 E14.11524
G1 X143.590 Y130.852 E14.24399
G1 X142.165 Y132.518 E14.37273
G1 X140.677 Y134.127 E14.50147
G1 X139.127 Y135.677 E14.63022
G1 X137.518 Y137.165 E14.75896
G1 X135.852 Y138.590 E14.88771
G1 X134.133 Y139.949 E15.01645
G1 X132.362 Y141.241 E15.14519
G1 X130.542 Y142.463 E15.27394
G1 X128.676 Y143.613 E15.40268
G1 X126.767 Y144.689 E15.53143
G1 X124.817 Y145.691 E15.66017
G1 X122.830 Y146.617 E15.78891
G1 X120.809 Y147.464 E15.91766
G1 X118.756 Y148.233 E16.04640
G1 X116.675 Y148.921 E16.17515
G1 X114.568 Y149.528 E16.30389
G1 X112.440 Y150.052 E16.43263
G1 X109.941 Y150.566 E16.58251
G1 X109.458 Y149.669 E16.64235
G1 X108.905 Y149.540 F10800.000
G1 X154.540 Y103.905 E20.43296 F1800.000
G1 X156.046 Y104.717 E20.53346
G1 X155.467 Y107.534 E20.70240
G1 X154.938 Y109.678 E20.83211
G1 X154.327 Y111.800 E20.96183
G1 X153.633 Y113.897 E21.09154
G1 X152.859 Y115.965 E21.22125
G1 X152.005 Y118.002 E21.35097
G1 X151.073 Y120.004 E21.48068
G1 X150.064 Y121.968 E21.61039
G1 X148.979 Y123.892 E21.74011
G1 X147.820 Y125.772 E21.86982
G1 X146.589 Y127.605 E21.99953
G1 X145.288 Y129.390 E22.12925
G1 X143.918 Y131.122 E22.25896
G1 X142.483 Y132.800 E22.38867
G1 X140.983 Y134.421 E22.51839
G1 X139.421 Y135.983 E22.64810
G1 X137.800 Y137.483 E22.77781
G1 X136.122 Y138.918 E22.90753
G1 X134.390 Y140.288 E23.03724
G1 X132.605 Y141.589 E23.16695
G1 X130.772 Y142.820 E23.29667
G1 X128.892 Y143.979 E23.42638
G1 X126.968 Y145.064 E23.55609
G1 X125.004 Y146.073 E23.68581
G1 X123.002 Y147.005 E23.81552
G1 X120.965 Y147.859 E23.94523
G1 X118.897 Y148.633 E24.07495
G1 X116.800 Y149.327 E24.20466
G1 X114.678 Y149.938 E24.33437
G1 X112.534 Y150.467 E24.46409
G1 X109.717 Y151.046 E24.63302
G1 X108.934 Y149.592 E24.73000
G1 E23.73000 F1800.00000
G92 E0
G1 X100.000 Y138.487 F10800.000
G1 E1.00000 F1800.00000
G1 X83.640 Y122.127 E2.35896 F1800.000
G1 X83.958 Y121.710 E2.38978
G1 X85.271 Y122.459 E2.47859
G1 X86.714 Y123.185 E2.57343
G1 X88.191 Y123.836 E2.66826
G1 X89.701 Y124.408 E2.76310
G1 X91.238 Y124.903 E2.85794
G1 X92.799 Y125.316 E2.95277
G1 X94.379 Y125.649 E3.04761
G1 X95.974 Y125.899 E3.14245
G1 X97.580 Y126.066 E3.23728
G1 X99.193 Y126.149 E3.33212
G1 X100.807 Y126.149 E3.42696
G1 X102.420 Y126.066 E3.52179
G1 X104.026 Y125.899 E3.61663
G1 X105.621 Y125.649 E3.71147
G1 X107.201 Y125.316 E3.80630
G1 X108.762 Y124.903 E3.90114
G1 X110.299 Y124.408 E3.99598
G1 X111.808 Y123.836 E4.09081
G1 X113.286 Y123.185 E4.18562
G1 X114.852 Y122.389 E4.28881
G1 X116.042 Y121.710 E4.36929
G1 X116.360 Y122.127 E4.40010
G1 X100.042 Y138.445 E5.75554
G1 X99.717 Y138.770 F10800.000
G1 X100.000 Y139.088 F10800.000
G1 X83.076 Y122.165 E7.16129 F1800.000
G1 X83.846 Y121.157 E7.23575
G1 X85.472 Y122.084 E7.34575
G1 X86.895 Y122.801 E7.43929
G1 X88.353 Y123.442 E7.53283
G1 X89.842 Y124.007 E7.62638
G1 X91.358 Y124.495 E7.71992
G1 X92.897 Y124.903 E7.81346
G1 X94.456 Y125.230 E7.90701
G1 X96.029 Y125.477 E8.00055
G1 X97.613 Y125.642 E8.09409
G1 X99.204 Y125.724 E8.18764
G1 X100.796 Y125.724 E8.28118
G1 X102.387 Y125.642 E8.37472
G1 X103.971 Y125.477 E8.46827
G1 X105.544 Y125.230 E8.56181
G1 X107.103 Y124.903 E8.65535
G1 X108.642 Y124.495 E8.74890
G1 X110.158 Y124.007 E8.84244
G1 X111.647 Y123.442 E8.93598
G1 X113.104 Y122.801 E9.02944
G1 X114.650 Y122.015 E9.13134
G1 X116.154 Y121.157 E9.23305
G1 X116.924 Y122.165 E9.30752
G1 X100.042 Y139.046 E10.70974
G1 X100.000 Y139.689 F10800.000
G1 X82.513 Y122.202 E12.16227 F1800.000
G1 X83.733 Y120.604 E12.28039
G1 X85.673 Y121.710 E12.41156
G1 X87.076 Y122.416 E12.50381
G1 X88.514 Y123.049 E12.59606
G1 X89.982 Y123.606 E12.68831
G1 X91.477 Y124.087 E12.78056
G1 X92.995 Y124.489 E12.87281
G1 X94.532 Y124.812 E12.96506
G1 X96.084 Y125.056 E13.05731
G1 X97.646 Y125.218 E13.14956
G1 X99.215 Y125.299 E13.24181
G1 X100.785 Y125.299 E13.33406
G1 X102.354 Y125.218 E13.42631
G1 X103.916 Y125.056 E13.51856
G1 X105.468 Y124.812 E13.61081
G1 X107.005 Y124.489 E13.70306
G1 X108.523 Y124.087 E13.79531
G1 X110.018 Y123.606 E13.88755
G1 X111.486 Y123.049 E13.97980
G1 X112.922 Y122.417 E14.07192
G1 X114.448 Y121.641 E14.17252
G1 X116.267 Y120.604 E14.29547
G1 X117.487 Y122.202 E14.41359
G1 X100.042 Y139.647 E15.86259
G1 E14.86259 F1800.00000
G92 E0
G1 X94.333 Y154.681 F10800.000
G1 E1.00000 F1800.00000
G1 X94.304 Y155.250 E1.03348 F1800.000
G1 X39.750 Y155.250 E4.23773
G1 X39.750 Y100.696 E7.44198
G1 X40.319 Y100.667 E7.47547
G1 X40.474 Y102.184 E7.56500
G1 X40.780 Y104.378 E7.69516
G1 X41.167 Y106.560 E7.82532
G1 X41.634 Y108.727 E7.95547
G1 X42.181 Y110.874 E8.08561
G1 X42.869 Y113.184 E8.22719
G1 X43.512 Y115.101 E8.34594
G1 X44.293 Y117.174 E8.47609
G1 X45.151 Y119.218 E8.60625
G1 X46.083 Y121.228 E8.73641
G1 X47.089 Y123.202 E8.86656
G1 X48.167 Y125.138 E8.99672
G1 X49.316 Y127.033 E9.12688
G1 X50.535 Y128.884 E9.25703
G1 X51.821 Y130.689 E9.38719
G1 X53.172 Y132.445 E9.51732
G1 X54.718 Y134.295 E9.65891
G1 X56.066 Y135.801 E9.77765
G1 X57.603 Y137.397 E9.90781
G1 X59.199 Y138.934 E10.03796
G1 X60.850 Y140.412 E10.16812
G1 X62.555 Y141.828 E10.29828
G1 X64.311 Y143.179 E10.42843
G1 X66.116 Y144.465 E10.55857
G1 X68.133 Y145.784 E10.70015
G1 X69.862 Y146.833 E10.81890
G1 X71.798 Y147.911 E10.94905
G1 X73.772 Y148.917 E11.07921
G1 X75.782 Y149.849 E11.20934
G1 X78.007 Y150.775 E11.35093
G1 X79.899 Y151.488 E11.46967
G1 X82.000 Y152.192 E11.59983
G1 X84.126 Y152.818 E11.72998
G1 X86.273 Y153.366 E11.86014
G1 X88.440 Y153.833 E11.99030
G1 X90.621 Y154.220 E12.12045
G1 X92.816 Y154.526 E12.25061
G1 X94.273 Y154.675 E12.33662
G1 X94.732 Y154.708 F10800.000
G1 X94.778 Y154.299 F10800.000
G1 X94.708 Y155.675 E12.41754 F1800.000
G1 X39.325 Y155.675 E15.67047
G1 X39.325 Y100.292 E18.92339
G1 X40.701 Y100.222 E19.00432
G1 X40.896 Y102.133 E19.11711
