; generated by Slic3r 1.2.9 on 2017-01-01 at 13:50:51

; Perimeter Width ajustées au diamètre de buse de 0,4mm

; external perimeters extrusion width = 0.40mm
; perimeters extrusion width = 0.68mm
; infill extrusion width = 0.87mm
; solid infill extrusion width = 0.68mm
; top infill extrusion width = 0.68mm

M190 S90 ; set bed temperature
M104 S250 ; set temperature
G91 ;      coordonnees en relatif
G1 Z20 ; relevage de 20mm en Z
G90 ;      coordonnee en absolue
G28 ;      homing en X, Y et Z
G29 ;      Auto leveling


M109 S250 ; wait for temperature to be reached
G21 ; set units to millimeters
G90 ; use absolute coordinates
M82 ; use absolute distances for extrusion
G92 E0
G1 Z0.350 F10800.000
G1 E-1.00000 F1800.00000
G92 E0
G1 X20.580 Y14.975 F10800.000
G1 E1.00000 F1800.00000
G1 X22.371 Y12.644 E1.17264 F1800.000
G1 X24.721 Y10.880 E1.34529
G1 X27.460 Y9.811 E1.51793
G1 X29.988 Y9.509 E1.66749
G1 X169.213 Y9.506 E9.84494
G1 X170.010 Y9.507 E9.89177 F1800.000
G1 X172.922 Y9.907 E10.06441
G1 X175.619 Y11.075 E10.23706
G1 X177.904 Y12.924 E10.40970
G1 X179.609 Y15.318 E10.58235
G1 X180.519 Y17.699 E10.73205
G1 X185.519 Y37.493 E11.93116
G1 X185.850 Y40.150 E12.08844
G1 X185.850 Y149.850 E18.53173
G1 X185.530 Y152.463 E18.68635
G1 X180.530 Y172.613 E19.90577
G1 X179.443 Y175.344 E20.07841
G1 X177.662 Y177.682 E20.25106
G1 X175.319 Y179.457 E20.42370
G1 X172.585 Y180.537 E20.59635
G1 X170.000 Y180.850 E20.74929
G1 X30.000 Y180.850 E28.97227
G1 X27.088 Y180.452 E29.14492
G1 X24.389 Y179.286 E29.31756
G1 X22.102 Y177.440 E29.49021
G1 X20.395 Y175.047 E29.66285
G1 X19.470 Y172.613 E29.81579
G1 X14.470 Y152.463 E31.03521
G1 X14.150 Y149.850 E31.18983
G1 X14.150 Y40.150 E37.63312
G1 X14.481 Y37.492 E37.79042
G1 X19.481 Y17.701 E38.98939
G1 X20.558 Y15.031 E39.15851
G1 X20.978 Y15.136 F10800.000
G1 X22.751 Y12.866 E39.32773 F1800.000
G1 X25.079 Y11.169 E39.49694
G1 X27.782 Y10.173 E39.66616
G1 X29.988 Y9.934 E39.79649
G1 X169.212 Y9.931 E47.97389
G1 X170.009 Y9.932 E48.02071 F1800.000
G1 X172.862 Y10.332 E48.18993
G1 X175.497 Y11.498 E48.35914
G1 X177.711 Y13.341 E48.52836
G1 X179.337 Y15.720 E48.69757
G1 X180.107 Y17.803 E48.82805
G1 X185.107 Y37.597 E50.02716
G1 X185.425 Y40.150 E50.17828
G1 X185.425 Y149.850 E56.62158
G1 X185.118 Y152.361 E56.77014
G1 X180.118 Y172.511 E57.98955
G1 X179.044 Y175.184 E58.15877
G1 X177.280 Y177.462 E58.32798
G1 X174.960 Y179.169 E58.49720
G1 X172.261 Y180.177 E58.66641
G1 X170.000 Y180.425 E58.80000
G1 X30.000 Y180.425 E67.02299
G1 X27.147 Y180.027 E67.19220
G1 X24.511 Y178.863 E67.36142
G1 X22.295 Y177.022 E67.53063
G1 X20.667 Y174.645 E67.69985
G1 X19.882 Y172.511 E67.83344
G1 X14.882 Y152.361 E69.05285
G1 X14.575 Y149.850 E69.20142
G1 X14.575 Y40.150 E75.64471
G1 X14.893 Y37.597 E75.79585
G1 X19.893 Y17.805 E76.99482
G1 X20.955 Y15.192 E77.16051
G1 E76.16051 F1800.00000
G92 E0
G1 X30.250 Y40.400 F10800.000
G1 E1.00000 F1800.00000
G1 X30.250 Y20.609 E2.16245 F1800.000
G1 X169.750 Y20.606 E10.35607
G1 X169.750 Y40.400 E11.51866
G1 X174.750 Y40.400 E11.81233
G1 X174.750 Y69.600 E13.52741
G1 X169.750 Y69.600 E13.82109
G1 X169.750 Y120.400 E16.80486
G1 X174.750 Y120.400 E17.09854
G1 X174.750 Y149.600 E18.81362
G1 X169.750 Y149.600 E19.10730
G1 X169.750 Y169.750 E20.29082
G1 X30.250 Y169.750 E28.48444
G1 X30.250 Y149.600 E29.66796
G1 X25.250 Y149.600 E29.96164
G1 X25.250 Y120.400 E31.67672
G1 X30.250 Y120.400 E31.97040
G1 X30.250 Y69.600 E34.95417
G1 X25.250 Y69.600 E35.24784
G1 X25.250 Y40.400 E36.96292
G1 X30.190 Y40.400 E37.25308
G1 X30.650 Y40.400 F10800.000
G1 X30.675 Y40.825 F10800.000
G1 X30.675 Y21.034 E38.41553 F1800.000
G1 X169.325 Y21.031 E46.55923
G1 X169.325 Y40.825 E47.72182
G1 X174.325 Y40.825 E48.01550
G1 X174.325 Y69.175 E49.68067
G1 X169.325 Y69.175 E49.97435
G1 X169.325 Y120.825 E53.00803
G1 X174.325 Y120.825 E53.30171
G1 X174.325 Y149.175 E54.96687
G1 X169.325 Y149.175 E55.26055
G1 X169.325 Y169.325 E56.44407
G1 X30.675 Y169.325 E64.58778
G1 X30.675 Y149.175 E65.77130
G1 X25.675 Y149.175 E66.06498
G1 X25.675 Y120.825 E67.73015
G1 X30.675 Y120.825 E68.02383
G1 X30.675 Y69.175 E71.05751
G1 X25.675 Y69.175 E71.35119
G1 X25.675 Y40.825 E73.01635
G1 X30.615 Y40.825 E73.30651
G1 X31.100 Y41.250 F10800.000
G1 X31.100 Y21.459 E74.46896 F1800.000
G1 X168.900 Y21.456 E82.56275
G1 X168.900 Y41.250 E83.72534
G1 X173.900 Y41.250 E84.01902
G1 X173.900 Y68.750 E85.63427
G1 X168.900 Y68.750 E85.92795
G1 X168.900 Y121.250 E89.01155
G1 X173.900 Y121.250 E89.30522
G1 X173.900 Y148.750 E90.92048
G1 X168.900 Y148.750 E91.21416
G1 X168.900 Y168.900 E92.39768
G1 X31.100 Y168.900 E100.49147
G1 X31.100 Y148.750 E101.67500
G1 X26.100 Y148.750 E101.96867
G1 X26.100 Y121.250 E103.58393
G1 X31.100 Y121.250 E103.87761
G1 X31.100 Y68.750 E106.96120
G1 X26.100 Y68.750 E107.25488
G1 X26.100 Y41.250 E108.87013
G1 X31.040 Y41.250 E109.16029
G1 E108.16029 F1800.00000
G92 E0
G1 X109.953 Y149.693 F10800.000
G1 E1.00000 F1800.00000
G1 X154.693 Y104.953 E4.71633 F1800.000
G1 X155.086 Y105.165 E4.74255
G1 X154.638 Y107.346 E4.87337
G1 X154.117 Y109.459 E5.00114
G1 X153.515 Y111.549 E5.12892
G1 X152.832 Y113.615 E5.25669
G1 X152.069 Y115.652 E5.38447
G1 X151.228 Y117.658 E5.51224
G1 X150.310 Y119.630 E5.64002
G1 X149.315 Y121.565 E5.76779
G1 X148.247 Y123.460 E5.89557
G1 X147.105 Y125.312 E6.02334
G1 X145.893 Y127.118 E6.15111
G1 X144.611 Y128.876 E6.27889
G1 X143.262 Y130.582 E6.40666
G1 X141.848 Y132.235 E6.53444
G1 X140.370 Y133.832 E6.66221
G1 X138.832 Y135.370 E6.78999
G1 X137.235 Y136.848 E6.91776
G1 X135.582 Y138.262 E7.04554
G1 X133.876 Y139.611 E7.17331
G1 X132.118 Y140.893 E7.30109
G1 X130.312 Y142.105 E7.42886
G1 X128.460 Y143.247 E7.55664
G1 X126.565 Y144.315 E7.68441
G1 X124.630 Y145.310 E7.81219
G1 X122.658 Y146.228 E7.93996
G1 X120.652 Y147.069 E8.06773
G1 X118.615 Y147.832 E8.19551
G1 X116.549 Y148.515 E8.32328
G1 X114.459 Y149.117 E8.45106
G1 X112.346 Y149.638 E8.57883
G1 X110.165 Y150.086 E8.70966
G1 X109.982 Y149.746 E8.73235
G1 X109.699 Y149.384 F10800.000
G1 X109.429 Y149.616 F10800.000
G1 X154.616 Y104.429 E12.48582 F1800.000
G1 X155.566 Y104.941 E12.54918
G1 X155.052 Y107.440 E12.69906
G1 X154.528 Y109.568 E12.82780
G1 X153.921 Y111.675 E12.95655
G1 X153.233 Y113.756 E13.08529
G1 X152.464 Y115.809 E13.21403
G1 X151.617 Y117.830 E13.34278
G1 X150.691 Y119.817 E13.47152
G1 X149.689 Y121.767 E13.60027
G1 X148.613 Y123.676 E13.72901
G1 X147.463 Y125.542 E13.85775
G1 X146.241 Y127.362 E13.98650
G1 X144.949 Y129.133 E14.11524
G1 X143.590 Y130.852 E14.24399
G1 X142.165 Y132.518 E14.37273
G1 X140.677 Y134.127 E14.50147
G1 X139.127 Y135.677 E14.63022
G1 X137.518 Y137.165 E14.75896
G1 X135.852 Y138.590 E14.88771
G1 X134.133 Y139.949 E15.01645
G1 X132.362 Y141.241 E15.14519
G1 X130.542 Y142.463 E15.27394
G1 X128.676 Y143.613 E15.40268
G1 X126.767 Y144.689 E15.53143
G1 X124.817 Y145.691 E15.66017
G1 X122.830 Y146.617 E15.78891
G1 X120.809 Y147.464 E15.91766
G1 X118.756 Y148.233 E16.04640
G1 X116.675 Y148.921 E16.17515
G1 X114.568 Y149.528 E16.30389
G1 X112.440 Y150.052 E16.43263
G1 X109.941 Y150.566 E16.58251
G1 X109.458 Y149.669 E16.64235
G1 X108.905 Y149.540 F10800.000
G1 X154.540 Y103.905 E20.43296 F1800.000
G1 X156.046 Y104.717 E20.53346
G1 X155.467 Y107.534 E20.70240
G1 X154.938 Y109.678 E20.83211
G1 X154.327 Y111.800 E20.96183
G1 X153.633 Y113.897 E21.09154
G1 X152.859 Y115.965 E21.22125
G1 X152.005 Y118.002 E21.35097
G1 X151.073 Y120.004 E21.48068
G1 X150.064 Y121.968 E21.61039
G1 X148.979 Y123.892 E21.74011
G1 X147.820 Y125.772 E21.86982
G1 X146.589 Y127.605 E21.99953
G1 X145.288 Y129.390 E22.12925
G1 X143.918 Y131.122 E22.25896
G1 X142.483 Y132.800 E22.38867
G1 X140.983 Y134.421 E22.51839
G1 X139.421 Y135.983 E22.64810
G1 X137.800 Y137.483 E22.77781
G1 X136.122 Y138.918 E22.90753
G1 X134.390 Y140.288 E23.03724
G1 X132.605 Y141.589 E23.16695
G1 X130.772 Y142.820 E23.29667
G1 X128.892 Y143.979 E23.42638
G1 X126.968 Y145.064 E23.55609
G1 X125.004 Y146.073 E23.68581
G1 X123.002 Y147.005 E23.81552
G1 X120.965 Y147.859 E23.94523
G1 X118.897 Y148.633 E24.07495
G1 X116.800 Y149.327 E24.20466
G1 X114.678 Y149.938 E24.33437
G1 X112.534 Y150.467 E24.46409
G1 X109.717 Y151.046 E24.63302
G1 X108.934 Y149.592 E24.73000
G1 E23.73000 F1800.00000
G92 E0
G1 X100.000 Y138.487 F10800.000
G1 E1.00000 F1800.00000
G1 X83.640 Y122.127 E2.35896 F1800.000
G1 X83.958 Y121.710 E2.38978
G1 X85.271 Y122.459 E2.47859
G1 X86.714 Y123.185 E2.57342
G1 X88.191 Y123.836 E2.66826
G1 X89.701 Y124.408 E2.76310
G1 X91.238 Y124.902 E2.85790
G1 X92.938 Y125.345 E2.96110
G1 X94.379 Y125.649 E3.04760
G1 X95.974 Y125.899 E3.14244
G1 X97.580 Y126.066 E3.23727
G1 X99.193 Y126.149 E3.33211
G1 X100.807 Y126.149 E3.42695
G1 X102.420 Y126.066 E3.52178
G1 X104.026 Y125.899 E3.61662
G1 X105.621 Y125.649 E3.71146
G1 X107.201 Y125.316 E3.80629
G1 X108.762 Y124.903 E3.90113
G1 X110.299 Y124.408 E3.99597
G1 X111.808 Y123.836 E4.09080
G1 X113.286 Y123.185 E4.18564
G1 X114.729 Y122.459 E4.28048
G1 X116.042 Y121.710 E4.36929
G1 X116.360 Y122.127 E4.40010
G1 X100.042 Y138.445 E5.75554
G1 X99.717 Y138.770 F10800.000
G1 X100.000 Y139.088 F10800.000
G1 X83.076 Y122.165 E7.16129 F1800.000
G1 X83.846 Y121.157 E7.23575
G1 X85.472 Y122.084 E7.34575
G1 X86.895 Y122.801 E7.43929
G1 X88.353 Y123.442 E7.53283
G1 X89.842 Y124.007 E7.62638
G1 X91.356 Y124.494 E7.71984
G1 X93.035 Y124.932 E7.82173
G1 X94.456 Y125.230 E7.90699
G1 X96.029 Y125.477 E8.00054
G1 X97.613 Y125.642 E8.09408
G1 X99.204 Y125.724 E8.18762
G1 X100.796 Y125.724 E8.28117
G1 X102.387 Y125.642 E8.37471
G1 X103.971 Y125.477 E8.46825
G1 X105.544 Y125.230 E8.56180
G1 X107.103 Y124.903 E8.65534
G1 X108.642 Y124.495 E8.74888
G1 X110.158 Y124.007 E8.84243
G1 X111.647 Y123.442 E8.93597
G1 X113.105 Y122.801 E9.02951
G1 X114.528 Y122.084 E9.12306
G1 X116.154 Y121.157 E9.23305
G1 X116.923 Y122.165 E9.30752
G1 X100.042 Y139.046 E10.70974
G1 X100.000 Y139.689 F10800.000
G1 X82.513 Y122.202 E12.16227 F1800.000
G1 X83.733 Y120.604 E12.28039
G1 X85.673 Y121.710 E12.41156
G1 X87.076 Y122.416 E12.50381
G1 X88.514 Y123.049 E12.59606
G1 X89.982 Y123.606 E12.68831
G1 X91.475 Y124.086 E12.78042
G1 X93.133 Y124.518 E12.88103
G1 X94.532 Y124.812 E12.96505
G1 X96.084 Y125.056 E13.05730
G1 X97.646 Y125.218 E13.14955
G1 X99.215 Y125.299 E13.24179
G1 X100.785 Y125.299 E13.33404
G1 X102.354 Y125.218 E13.42629
G1 X103.916 Y125.056 E13.51854
G1 X105.468 Y124.812 E13.61079
G1 X107.005 Y124.489 E13.70304
G1 X108.523 Y124.087 E13.79529
G1 X110.018 Y123.606 E13.88754
G1 X111.486 Y123.049 E13.97979
G1 X112.924 Y122.416 E14.07204
G1 X114.327 Y121.710 E14.16429
G1 X116.267 Y120.604 E14.29546
G1 X117.487 Y122.202 E14.41358
G1 X100.042 Y139.647 E15.86259
G1 E14.86259 F1800.00000
G92 E0
G1 X94.333 Y154.681 F10800.000
G1 E1.00000 F1800.00000
G1 X94.304 Y155.250 E1.03348 F1800.000
G1 X39.750 Y155.250 E4.23773
G1 X39.750 Y100.696 E7.44199
G1 X40.319 Y100.667 E7.47547
G1 X40.474 Y102.184 E7.56501
G1 X40.780 Y104.378 E7.69516
G1 X41.167 Y106.560 E7.82532
G1 X41.634 Y108.727 E7.95548
G1 X42.181 Y110.874 E8.08561
G1 X42.869 Y113.184 E8.22720
G1 X43.512 Y115.101 E8.34594
G1 X44.293 Y117.174 E8.47609
G1 X45.151 Y119.218 E8.60625
G1 X46.083 Y121.228 E8.73641
G1 X47.089 Y123.202 E8.86656
G1 X48.167 Y125.138 E8.99672
G1 X49.316 Y127.033 E9.12688
G1 X50.535 Y128.884 E9.25703
G1 X51.821 Y130.689 E9.38719
G1 X53.172 Y132.445 E9.51735
G1 X54.588 Y134.150 E9.64750
G1 X56.066 Y135.801 E9.77766
G1 X57.603 Y137.397 E9.90782
G1 X59.199 Y138.934 E10.03797
G1 X60.850 Y140.412 E10.16813
G1 X62.555 Y141.827 E10.29826
G1 X64.469 Y143.292 E10.43985
G1 X66.116 Y144.465 E10.55859
G1 X67.967 Y145.684 E10.68875
G1 X69.862 Y146.833 E10.81890
G1 X71.798 Y147.911 E10.94906
G1 X73.772 Y148.917 E11.07922
G1 X75.782 Y149.849 E11.20937
G1 X77.826 Y150.707 E11.33953
G1 X79.899 Y151.488 E11.46969
G1 X82.000 Y152.192 E11.59984
G1 X84.126 Y152.818 E11.73000
G1 X86.273 Y153.366 E11.86016
G1 X88.440 Y153.833 E11.99031
G1 X90.621 Y154.220 E12.12047
G1 X92.816 Y154.526 E12.25063
G1 X94.273 Y154.675 E12.33664
G1 X94.732 Y154.708 F10800.000
G1 X94.778 Y154.299 F10800.000
G1 X94.708 Y155.675 E12.41756 F1800.000
G1 X39.325 Y155.675 E15.67048
G1 X39.325 Y100.292 E18.92341
G1 X40.701 Y100.222 E19.00433
G1 X40.896 Y102.133 E19.11713
G1 X41.200 Y104.312 E19.24636
G1 X41.584 Y106.478 E19.37560
G1 X42.048 Y108.629 E19.50483
G1 X42.591 Y110.760 E19.63401
G1 X43.275 Y113.056 E19.77467
G1 X43.912 Y114.958 E19.89252
G1 X44.688 Y117.017 E20.02176
G1 X45.539 Y119.046 E20.15099
G1 X46.465 Y121.042 E20.28023
G1 X47.464 Y123.003 E20.40946
G1 X48.535 Y124.925 E20.53869
G1 X49.676 Y126.806 E20.66793
G1 X50.885 Y128.644 E20.79716
G1 X52.162 Y130.436 E20.92640
G1 X53.504 Y132.179 E21.05563
G1 X54.910 Y133.872 E21.18486
G1 X56.377 Y135.512 E21.31410
G1 X57.904 Y137.096 E21.44333
G1 X59.488 Y138.623 E21.57257
G1 X61.128 Y140.090 E21.70180
G1 X62.820 Y141.495 E21.83098
G1 X64.722 Y142.950 E21.97164
G1 X66.356 Y144.115 E22.08950
G1 X68.194 Y145.324 E22.21873
G1 X70.075 Y146.465 E22.34796
G1 X71.997 Y147.536 E22.47720
G1 X73.958 Y148.535 E22.60643
G1 X75.954 Y149.461 E22.73567
G1 X77.983 Y150.312 E22.86490
G1 X80.042 Y151.088 E22.99413
G1 X82.128 Y151.787 E23.12337
G1 X84.239 Y152.409 E23.25260
G1 X86.371 Y152.952 E23.38184
G1 X88.522 Y153.416 E23.51107
G1 X90.688 Y153.800 E23.64030
G1 X92.867 Y154.104 E23.76954
G1 X94.718 Y154.293 E23.87881
G1 X95.222 Y153.917 F10800.000
G1 X95.111 Y156.100 E24.00717 F1800.000
G1 X38.900 Y156.100 E27.30877
G1 X38.900 Y99.889 E30.61037
G1 X41.083 Y99.778 E30.73873
G1 X41.318 Y102.082 E30.87478
G1 X41.620 Y104.246 E31.00309
G1 X42.001 Y106.397 E31.13141
G1 X42.462 Y108.532 E31.25972
G1 X43.001 Y110.647 E31.38793
G1 X43.680 Y112.928 E31.52767
G1 X44.313 Y114.816 E31.64465
G1 X45.083 Y116.860 E31.77296
G1 X45.928 Y118.874 E31.90127
G1 X46.847 Y120.856 E32.02958
G1 X47.839 Y122.803 E32.15789
G1 X48.902 Y124.711 E32.28620
G1 X50.035 Y126.579 E32.41451
G1 X51.236 Y128.404 E32.54283
G1 X52.504 Y130.183 E32.67114
G1 X53.836 Y131.914 E32.79945
G1 X55.232 Y133.595 E32.92776
G1 X56.688 Y135.223 E33.05607
G1 X58.204 Y136.796 E33.18438
G1 X59.777 Y138.312 E33.31269
G1 X61.405 Y139.768 E33.44101
G1 X63.085 Y141.163 E33.56922
G1 X64.974 Y142.608 E33.70896
G1 X66.596 Y143.764 E33.82593
G1 X68.421 Y144.965 E33.95424
G1 X70.289 Y146.098 E34.08256
G1 X72.197 Y147.161 E34.21087
G1 X74.144 Y148.153 E34.33918
G1 X76.126 Y149.072 E34.46749
G1 X78.140 Y149.917 E34.59580
G1 X80.184 Y150.687 E34.72411
G1 X82.256 Y151.382 E34.85243
G1 X84.351 Y151.999 E34.98074
G1 X86.468 Y152.538 E35.10905
G1 X88.603 Y152.999 E35.23736
G1 X90.754 Y153.380 E35.36567
G1 X92.918 Y153.682 E35.49398
G1 X95.163 Y153.911 E35.62651
G1 X89.835 Y150.086 F10800.000
G1 X87.654 Y149.638 E35.75733 F1800.000
G1 X85.541 Y149.117 E35.88511
G1 X83.451 Y148.515 E36.01288
G1 X81.385 Y147.832 E36.14066
G1 X79.348 Y147.069 E36.26843
G1 X77.342 Y146.228 E36.39621
G1 X75.370 Y145.310 E36.52398
G1 X73.435 Y144.315 E36.65175
G1 X71.540 Y143.247 E36.77953
G1 X69.688 Y142.105 E36.90730
G1 X67.882 Y140.893 E37.03508
G1 X66.124 Y139.611 E37.16285
G1 X64.418 Y138.262 E37.29063
G1 X62.765 Y136.848 E37.41840
G1 X61.168 Y135.370 E37.54618
G1 X59.630 Y133.832 E37.67395
G1 X58.152 Y132.235 E37.80173
G1 X56.738 Y130.582 E37.92950
G1 X55.389 Y128.876 E38.05728
G1 X54.107 Y127.118 E38.18505
G1 X52.895 Y125.312 E38.31283
G1 X51.753 Y123.460 E38.44060
G1 X50.685 Y121.565 E38.56837
G1 X49.690 Y119.630 E38.69615
G1 X48.772 Y117.658 E38.82392
G1 X47.931 Y115.652 E38.95170
G1 X47.168 Y113.615 E39.07947
G1 X46.485 Y111.549 E39.20725
G1 X45.883 Y109.459 E39.33502
G1 X45.362 Y107.346 E39.46280
G1 X44.914 Y105.165 E39.59362
G1 X45.307 Y104.953 E39.61984
G1 X90.047 Y149.693 E43.33617
G1 X89.864 Y150.033 E43.35886
G1 X89.717 Y150.468 F10800.000
G1 X90.059 Y150.566 F10800.000
G1 X87.560 Y150.052 E43.50874 F1800.000
G1 X85.432 Y149.528 E43.63748
G1 X83.325 Y148.921 E43.76622
G1 X81.244 Y148.233 E43.89497
G1 X79.191 Y147.464 E44.02371
G1 X77.170 Y146.617 E44.15246
G1 X75.183 Y145.691 E44.28120
G1 X73.233 Y144.689 E44.40994
