; generated by Slic3r 1.2.9 on 2017-01-01 at 13:54:45

; Perimeter Width ajustées au diamètre de buse de 0,4mm

; external perimeters extrusion width = 0.40mm
; perimeters extrusion width = 0.68mm
; infill extrusion width = 0.87mm
; solid infill extrusion width = 0.68mm
; top infill extrusion width = 0.68mm

M190 S90 ; set bed temperature
M104 S250 ; set temperature
G91 ;      coordonnees en relatif
G1 Z20 ; relevage de 20mm en Z
G90 ;      coordonnee en absolue
G28 ;      homing en X, Y et Z
G29 ;      Auto leveling


M109 S250 ; wait for temperature to be reached
G21 ; set units to millimeters
G90 ; use absolute coordinates
M82 ; use absolute distances for extrusion
G92 E0
G1 Z0.350 F10800.000
G1 E-1.00000 F1800.00000
G92 E0
G1 X16.813 Y13.443 F10800.000
G1 E1.00000 F1800.00000
G1 X17.840 Y12.344 E1.08839 F1800.000
G1 X18.914 Y11.446 E1.17059
G1 X20.435 Y10.494 E1.27598
G1 X21.874 Y9.858 E1.36837
G1 X23.316 Y9.437 E1.45662
G1 X24.495 Y9.236 E1.52689
G1 X25.550 Y9.158 E1.58899
G1 X174.273 Y9.154 E10.32437
G1 X175.498 Y9.235 E10.39647 F1800.000
G1 X176.648 Y9.429 E10.46494
G1 X177.967 Y9.801 E10.54547
G1 X179.206 Y10.312 E10.62419
G1 X180.536 Y11.063 E10.71386
G1 X181.638 Y11.881 E10.79449
G1 X182.578 Y12.758 E10.87001
G1 X183.625 Y14.012 E10.96593
G1 X184.447 Y15.322 E11.05680
G1 X185.142 Y16.874 E11.15669
G1 X185.587 Y18.427 E11.25155
G1 X185.775 Y19.590 E11.32073
G1 X185.842 Y20.550 E11.37727
G1 X185.850 Y21.000 E11.40371
G1 X185.850 Y169.000 E20.09658
G1 X185.842 Y169.460 E20.12359
G1 X185.776 Y170.404 E20.17921
G1 X185.569 Y171.657 E20.25377
G1 X185.232 Y172.870 E20.32774
G1 X184.641 Y174.303 E20.41879
G1 X183.993 Y175.450 E20.49612
G1 X183.187 Y176.557 E20.57657
G1 X182.160 Y177.656 E20.66492
G1 X180.988 Y178.625 E20.75421
G1 X179.677 Y179.447 E20.84510
G1 X178.126 Y180.142 E20.94495
G1 X176.577 Y180.586 E21.03957
G1 X175.505 Y180.764 E21.10343
G1 X174.450 Y180.842 E21.16555
G1 X25.726 Y180.846 E29.90092
G1 X24.501 Y180.765 E29.97305
G1 X23.343 Y180.569 E30.04207
G1 X22.019 Y180.194 E30.12287
G1 X20.794 Y179.688 E30.20072
G1 X19.455 Y178.931 E30.29104
G1 X18.360 Y178.118 E30.37117
G1 X17.344 Y177.160 E30.45320
G1 X16.376 Y175.990 E30.54240
G1 X15.553 Y174.677 E30.63340
G1 X14.858 Y173.126 E30.73319
G1 X14.416 Y171.585 E30.82737
G1 X14.225 Y170.413 E30.89710
G1 X14.158 Y169.450 E30.95382
G1 X14.150 Y169.000 E30.98026
G1 X14.154 Y20.727 E39.68919
G1 X14.225 Y19.595 E39.75578
G1 X14.408 Y18.449 E39.82397
G1 X14.803 Y17.029 E39.91052
G1 X15.356 Y15.703 E39.99492
G1 X16.008 Y14.550 E40.07271
G1 X16.777 Y13.492 E40.14956
G1 X17.140 Y13.714 F10800.000
G1 X18.133 Y12.651 E40.23500 F1800.000
G1 X19.165 Y11.789 E40.31397
G1 X20.634 Y10.869 E40.41580
G1 X22.017 Y10.258 E40.50458
G1 X23.407 Y9.852 E40.58963
G1 X24.544 Y9.658 E40.65738
G1 X25.560 Y9.583 E40.71725
G1 X174.263 Y9.578 E49.45138
G1 X175.450 Y9.657 E49.52127 F1800.000
G1 X176.558 Y9.844 E49.58728
G1 X177.830 Y10.203 E49.66489
G1 X179.020 Y10.694 E49.74053
G1 X180.305 Y11.420 E49.82716
G1 X181.367 Y12.208 E49.90488
G1 X182.270 Y13.051 E49.97744
G1 X183.282 Y14.262 E50.07014
G1 X184.071 Y15.522 E50.15744
G1 X184.742 Y17.017 E50.25371
G1 X185.172 Y18.517 E50.34535
G1 X185.353 Y19.638 E50.41204
G1 X185.417 Y20.561 E50.46636
G1 X185.425 Y21.000 E50.49217
G1 X185.417 Y169.449 E59.21139
G1 X185.342 Y170.452 E59.27051
G1 X185.154 Y171.567 E59.33691
G1 X184.793 Y172.840 E59.41459
G1 X184.306 Y174.020 E59.48963
G1 X183.577 Y175.310 E59.57664
G1 X182.792 Y176.368 E59.65399
G1 X181.950 Y177.270 E59.72650
G1 X180.738 Y178.282 E59.81923
G1 X179.478 Y179.072 E59.90656
G1 X177.983 Y179.742 E60.00280
G1 X176.487 Y180.171 E60.09421
G1 X175.456 Y180.342 E60.15556
G1 X174.439 Y180.417 E60.21546
G1 X25.737 Y180.422 E68.94958
G1 X24.549 Y180.343 E69.01949
G1 X23.432 Y180.154 E69.08603
G1 X22.157 Y179.792 E69.16390
G1 X20.980 Y179.306 E69.23871
G1 X19.687 Y178.575 E69.32595
G1 X18.631 Y177.791 E69.40319
G1 X17.652 Y176.867 E69.48227
G1 X16.719 Y175.739 E69.56825
G1 X15.928 Y174.477 E69.65569
G1 X15.258 Y172.983 E69.75186
G1 X14.831 Y171.494 E69.84284
G1 X14.648 Y170.365 E69.91005
G1 X14.583 Y169.439 E69.96455
G1 X14.575 Y169.000 E69.99036
G1 X14.578 Y20.737 E78.69866
G1 X14.647 Y19.643 E78.76305
G1 X14.824 Y18.538 E78.82878
G1 X15.205 Y17.167 E78.91240
G1 X15.738 Y15.889 E78.99372
G1 X16.364 Y14.781 E79.06847
G1 X17.104 Y13.763 E79.14241
G1 X21.405 Y17.248 F10800.000
G1 X21.763 Y16.843 E79.17415 F1800.000
G1 X22.307 Y16.354 E79.21710
G1 X22.673 Y16.086 E79.24372
G1 X22.968 Y15.901 E79.26421
G1 X23.390 Y15.677 E79.29224
G1 X23.714 Y15.534 E79.31308
G1 X24.437 Y15.296 E79.35776
G1 X25.052 Y15.175 E79.39460
G1 X25.373 Y15.138 E79.41359
G1 X25.908 Y15.115 E79.44502
G1 X174.092 Y15.115 E88.14872
G1 X174.622 Y15.137 E88.17987 F1800.000
G1 X175.179 Y15.213 E88.21285
G1 X175.807 Y15.365 E88.25086
G1 X176.179 Y15.493 E88.27395
G1 X176.460 Y15.608 E88.29178
G1 X177.081 Y15.930 E88.33285
G1 X177.642 Y16.314 E88.37279
G1 X178.157 Y16.762 E88.41286
G1 X178.646 Y17.306 E88.45580
G1 X178.913 Y17.671 E88.48241
G1 X179.099 Y17.967 E88.50295
G1 X179.324 Y18.390 E88.53107
G1 X179.467 Y18.715 E88.55189
G1 X179.616 Y19.133 E88.57802
G1 X179.786 Y19.813 E88.61915
G1 X179.862 Y20.376 E88.65251
G1 X179.886 Y20.968 E88.68733
G1 X179.877 Y169.410 E97.40617
G1 X179.826 Y169.942 E97.43756
G1 X179.710 Y170.535 E97.47301
G1 X179.505 Y171.185 E97.51306
G1 X179.391 Y171.462 E97.53067
G1 X179.215 Y171.824 E97.55429
G1 X178.853 Y172.414 E97.59496
G1 X178.437 Y172.943 E97.63446
G1 X177.942 Y173.438 E97.67563
G1 X177.330 Y173.912 E97.72110
G1 X177.033 Y174.099 E97.74169
G1 X176.610 Y174.323 E97.76981
G1 X176.286 Y174.467 E97.79064
G1 X175.864 Y174.617 E97.81692
G1 X175.188 Y174.785 E97.85783
G1 X174.624 Y174.862 E97.89130
G1 X174.095 Y174.885 E97.92239
G1 X25.969 Y174.886 E106.62266
G1 X25.377 Y174.862 E106.65746
G1 X24.821 Y174.787 E106.69040
G1 X24.192 Y174.634 E106.72844
G1 X23.814 Y174.505 E106.75192
G1 X23.315 Y174.282 E106.78402
G1 X22.918 Y174.069 E106.81051
G1 X22.356 Y173.685 E106.85043
G1 X21.842 Y173.237 E106.89048
G1 X21.355 Y172.695 E106.93333
G1 X21.087 Y172.329 E106.95994
G1 X20.901 Y172.032 E106.98050
G1 X20.677 Y171.611 E107.00854
G1 X20.534 Y171.286 E107.02939
G1 X20.382 Y170.861 E107.05588
G1 X20.215 Y170.193 E107.09636
G1 X20.138 Y169.626 E107.12994
G1 X20.114 Y169.031 E107.16495
G1 X20.114 Y20.969 E115.86142
G1 X20.122 Y20.593 E115.88351
G1 X20.174 Y20.057 E115.91513
G1 X20.289 Y19.467 E115.95046
G1 X20.366 Y19.192 E115.96723
G1 X20.609 Y18.539 E116.00815
G1 X20.784 Y18.178 E116.03170
G1 X21.146 Y17.587 E116.07242
G1 X21.367 Y17.294 E116.09399
G1 X21.732 Y17.519 F10800.000
G1 X22.065 Y17.142 E116.12351 F1800.000
G1 X22.568 Y16.689 E116.16331
G1 X22.911 Y16.438 E116.18823
G1 X23.181 Y16.269 E116.20694
G1 X23.575 Y16.059 E116.23317
G1 X23.872 Y15.928 E116.25219
G1 X24.541 Y15.709 E116.29357
G1 X25.111 Y15.596 E116.32773
G1 X25.611 Y15.547 E116.35724
G1 X25.916 Y15.539 E116.37513
G1 X174.028 Y15.539 E125.07459
G1 X174.583 Y15.561 E125.10723 F1800.000
G1 X175.099 Y15.630 E125.13782
G1 X175.682 Y15.772 E125.17301
G1 X176.030 Y15.890 E125.19462
G1 X176.286 Y15.996 E125.21090
G1 X176.861 Y16.294 E125.24891
G1 X177.381 Y16.649 E125.28590
G1 X177.857 Y17.064 E125.32302
G1 X178.311 Y17.568 E125.36282
G1 X178.561 Y17.910 E125.38773
G1 X178.731 Y18.180 E125.40648
G1 X178.941 Y18.576 E125.43279
G1 X179.072 Y18.872 E125.45180
G1 X179.212 Y19.264 E125.47624
G1 X179.368 Y19.893 E125.51431
G1 X179.439 Y20.415 E125.54525
G1 X179.461 Y20.971 E125.57794
G1 X179.453 Y169.390 E134.29541
G1 X179.405 Y169.883 E134.32454
G1 X179.298 Y170.433 E134.35741
G1 X179.108 Y171.035 E134.39450
G1 X179.003 Y171.288 E134.41057
G1 X178.839 Y171.626 E134.43266
G1 X178.504 Y172.173 E134.47032
G1 X178.118 Y172.662 E134.50692
G1 X177.659 Y173.122 E134.54509
G1 X177.091 Y173.560 E134.58722
G1 X176.820 Y173.731 E134.60603
G1 X176.424 Y173.941 E134.63234
G1 X176.128 Y174.072 E134.65135
G1 X175.734 Y174.212 E134.67593
G1 X175.108 Y174.368 E134.71380
G1 X174.585 Y174.439 E134.74483
G1 X174.087 Y174.461 E134.77411
G1 X25.972 Y174.461 E143.47374
G1 X25.416 Y174.439 E143.50641
G1 X24.901 Y174.370 E143.53697
G1 X24.318 Y174.228 E143.57219
G1 X23.964 Y174.107 E143.59415
G1 X23.501 Y173.900 E143.62396
G1 X23.138 Y173.705 E143.64816
G1 X22.618 Y173.350 E143.68513
G1 X22.142 Y172.935 E143.72224
G1 X21.689 Y172.433 E143.76194
G1 X21.439 Y172.090 E143.78686
G1 X21.269 Y171.820 E143.80563
G1 X21.059 Y171.425 E143.83186
G1 X20.928 Y171.129 E143.85090
G1 X20.787 Y170.731 E143.87567
G1 X20.633 Y170.112 E143.91315
G1 X20.561 Y169.587 E143.94428
G1 X20.539 Y169.028 E143.97715
G1 X20.539 Y20.972 E152.67331
G1 X20.547 Y20.613 E152.69437
G1 X20.595 Y20.116 E152.72371
G1 X20.702 Y19.569 E152.75647
G1 X20.772 Y19.318 E152.77178
G1 X20.996 Y18.713 E152.80966
G1 X21.160 Y18.376 E152.83168
G1 X21.495 Y17.829 E152.86937
G1 X21.694 Y17.565 E152.88877
G1 X22.060 Y17.790 F10800.000
G1 X22.367 Y17.441 E152.91607 F1800.000
G1 X22.830 Y17.023 E152.95271
G1 X23.394 Y16.637 E152.99284
G1 X23.761 Y16.442 E153.01727
G1 X24.397 Y16.192 E153.05739
G1 X24.969 Y16.050 E153.09201
G1 X25.452 Y15.984 E153.12063
G1 X25.975 Y15.964 E153.15137
G1 X174.076 Y15.964 E161.85021
G1 X174.544 Y15.984 E161.87774 F1800.000
G1 X175.020 Y16.048 E161.90593
G1 X175.556 Y16.178 E161.93832
G1 X175.880 Y16.288 E161.95843
G1 X176.112 Y16.384 E161.97316
G1 X176.641 Y16.658 E162.00812
G1 X177.119 Y16.984 E162.04216
G1 X177.558 Y17.366 E162.07634
G1 X177.976 Y17.830 E162.11298
G1 X178.209 Y18.149 E162.13619
G1 X178.559 Y18.762 E162.17764
G1 X178.677 Y19.030 E162.19483
G1 X178.879 Y19.644 E162.23281
G1 X178.984 Y20.172 E162.26442
G1 X179.028 Y20.632 E162.29162
G1 X179.036 Y169.025 E171.00757
G1 X179.016 Y169.545 E171.03812
G1 X178.952 Y170.020 E171.06629
G1 X178.822 Y170.557 E171.09869
G1 X178.710 Y170.885 E171.11906
G1 X178.615 Y171.113 E171.13360
G1 X178.342 Y171.641 E171.16853
G1 X178.015 Y172.120 E171.20256
G1 X177.634 Y172.558 E171.23668
G1 X177.171 Y172.975 E171.27325
G1 X176.852 Y173.209 E171.29646
G1 X176.239 Y173.558 E171.33796
G1 X175.971 Y173.677 E171.35516
G1 X175.604 Y173.808 E171.37803
G1 X175.028 Y173.950 E171.41287
G1 X174.546 Y174.016 E171.44146
G1 X174.026 Y174.036 E171.47202
G1 X25.975 Y174.036 E180.16792
G1 X25.455 Y174.016 E180.19847
G1 X24.980 Y173.952 E180.22663
G1 X24.443 Y173.822 E180.25904
G1 X24.114 Y173.710 E180.27947
G1 X23.687 Y173.518 E180.30698
G1 X23.358 Y173.341 E180.32890
G1 X22.880 Y173.015 E180.36293
G1 X22.441 Y172.633 E180.39710
G1 X22.024 Y172.171 E180.43365
G1 X21.791 Y171.852 E180.45687
G1 X21.442 Y171.239 E180.49826
G1 X21.323 Y170.971 E180.51548
G1 X21.191 Y170.601 E180.53854
G1 X21.050 Y170.032 E180.57301
G1 X20.984 Y169.548 E180.60169
G1 X20.964 Y169.025 E180.63242
G1 X20.964 Y20.975 E189.32826
G1 X20.972 Y20.634 E189.34830
G1 X21.016 Y20.175 E189.37537
G1 X21.115 Y19.671 E189.40555
G1 X21.178 Y19.443 E189.41940
G1 X21.384 Y18.887 E189.45423
G1 X21.537 Y18.574 E189.47473
G1 X21.845 Y18.070 E189.50940
G1 X22.021 Y17.836 E189.52661
G1 X22.387 Y18.061 F10800.000
G1 X22.669 Y17.740 E189.55170 F1800.000
G1 X23.092 Y17.358 E189.58519
G1 X23.607 Y17.005 E189.62184
G1 X23.947 Y16.824 E189.64447
G1 X24.527 Y16.597 E189.68107
G1 X25.049 Y16.467 E189.71267
G1 X25.491 Y16.407 E189.73885
G1 X25.977 Y16.388 E189.76744
G1 X174.023 Y16.388 E198.46298
G1 X174.506 Y16.407 E198.49137 F1800.000
G1 X174.941 Y16.466 E198.51717
G1 X175.431 Y16.584 E198.54675
G1 X175.731 Y16.686 E198.56537
G1 X175.938 Y16.772 E198.57855
G1 X176.420 Y17.021 E198.61045
G1 X176.858 Y17.319 E198.64154
G1 X177.259 Y17.668 E198.67278
G1 X177.641 Y18.091 E198.70626
G1 X177.857 Y18.387 E198.72778
G1 X178.176 Y18.947 E198.76563
G1 X178.282 Y19.187 E198.78102
G1 X178.403 Y19.525 E198.80208
G1 X178.533 Y20.053 E198.83403
G1 X178.593 Y20.493 E198.86011
G1 X178.612 Y20.976 E198.88854
G1 X178.604 Y169.349 E207.60329
G1 X178.563 Y169.766 E207.62791
G1 X178.472 Y170.229 E207.65561
G1 X178.312 Y170.735 E207.68676
G1 X178.228 Y170.939 E207.69977
G1 X178.086 Y171.230 E207.71879
G1 X177.804 Y171.689 E207.75041
G1 X177.479 Y172.101 E207.78123
G1 X177.092 Y172.488 E207.81340
G1 X176.614 Y172.857 E207.84886
G1 X176.394 Y172.995 E207.86408
G1 X175.813 Y173.282 E207.90215
G1 X175.474 Y173.403 E207.92332
G1 X174.948 Y173.533 E207.95511
G1 X174.507 Y173.593 E207.98126
G1 X174.023 Y173.612 E208.00969
G1 X25.977 Y173.612 E216.70528
G1 X25.494 Y173.593 E216.73369
G1 X25.059 Y173.534 E216.75946
G1 X24.569 Y173.416 E216.78906
G1 X24.265 Y173.312 E216.80797
G1 X23.873 Y173.136 E216.83319
G1 X23.578 Y172.978 E216.85283
G1 X23.141 Y172.680 E216.88390
G1 X22.740 Y172.331 E216.91513
G1 X22.359 Y171.909 E216.94854
G1 X22.143 Y171.613 E216.97006
G1 X21.824 Y171.053 E217.00786
G1 X21.718 Y170.813 E217.02328
G1 X21.596 Y170.472 E217.04460
G1 X21.467 Y169.951 E217.07607
G1 X21.407 Y169.509 E217.10231
G1 X21.388 Y169.023 E217.13089
G1 X21.388 Y20.977 E225.82642
G1 X21.396 Y20.654 E225.84544
G1 X21.437 Y20.234 E225.87023
G1 X21.584 Y19.569 E225.91020
G1 X21.772 Y19.061 E225.94199
G1 X21.913 Y18.771 E225.96096
G1 X22.195 Y18.312 E225.99261
G1 X22.349 Y18.107 E226.00764
G1 X22.714 Y18.332 F10800.000
G1 X22.971 Y18.039 E226.03051 F1800.000
G1 X23.354 Y17.693 E226.06084
G1 X23.819 Y17.373 E226.09401
G1 X24.133 Y17.207 E226.11484
G1 X24.657 Y17.001 E226.14793
G1 X25.129 Y16.885 E226.17651
G1 X25.530 Y16.831 E226.20025
G1 X25.980 Y16.813 E226.22669
G1 X174.060 Y16.814 E234.92428
G1 X174.467 Y16.830 E234.94818 F1800.000
G1 X174.862 Y16.883 E234.97158
G1 X175.305 Y16.990 E234.99835
G1 X175.581 Y17.084 E235.01548
G1 X176.200 Y17.385 E235.05593
G1 X176.596 Y17.655 E235.08407
G1 X176.960 Y17.970 E235.11236
G1 X177.306 Y18.353 E235.14270
G1 X177.506 Y18.626 E235.16252
G1 X177.794 Y19.133 E235.19678
G1 X177.887 Y19.345 E235.21035
G1 X178.055 Y19.852 E235.24174
G1 X178.142 Y20.289 E235.26795
G1 X178.179 Y20.673 E235.29057
G1 X178.187 Y169.020 E244.00384
G1 X178.170 Y169.467 E244.03013
G1 X178.117 Y169.862 E244.05351
G1 X178.010 Y170.305 E244.08029
G1 X177.915 Y170.584 E244.09762
G1 X177.615 Y171.201 E244.13790
G1 X177.345 Y171.597 E244.16603
G1 X177.030 Y171.960 E244.19428
G1 X176.647 Y172.306 E244.22456
G1 X176.375 Y172.505 E244.24438
G1 X175.867 Y172.793 E244.27868
G1 X175.656 Y172.887 E244.29226
G1 X175.344 Y172.998 E244.31172
G1 X174.868 Y173.116 E244.34047
G1 X174.468 Y173.170 E244.36419
G1 X174.021 Y173.187 E244.39050
G1 X25.980 Y173.187 E253.08576
G1 X25.533 Y173.170 E253.11205
G1 X25.138 Y173.117 E253.13542
G1 X24.695 Y173.010 E253.16221
G1 X24.415 Y172.914 E253.17960
G1 X23.799 Y172.614 E253.21985
G1 X23.403 Y172.345 E253.24797
G1 X23.039 Y172.029 E253.27626
G1 X22.694 Y171.647 E253.30652
G1 X22.494 Y171.374 E253.32635
G1 X22.207 Y170.868 E253.36057
G1 X22.113 Y170.656 E253.37417
G1 X22.001 Y170.342 E253.39377
G1 X21.885 Y169.871 E253.42224
G1 X21.831 Y169.470 E253.44603
G1 X21.813 Y169.020 E253.47246
G1 X21.813 Y20.980 E262.16768
G1 X21.821 Y20.674 E262.18567
G1 X21.858 Y20.292 E262.20819
G1 X21.990 Y19.695 E262.24413
G1 X22.160 Y19.236 E262.27288
G1 X22.290 Y18.969 E262.29031
G1 X22.545 Y18.553 E262.31895
G1 X22.676 Y18.378 E262.33180
G1 X23.041 Y18.603 F10800.000
G1 X23.273 Y18.339 E262.35244 F1800.000
G1 X23.616 Y18.028 E262.37962
G1 X24.032 Y17.741 E262.40932
G1 X24.318 Y17.589 E262.42835
G1 X24.787 Y17.406 E262.45791
G1 X25.210 Y17.302 E262.48347
G1 X25.569 Y17.254 E262.50477
G1 X25.983 Y17.238 E262.52908
G1 X174.017 Y17.238 E271.22399
G1 X174.428 Y17.254 E271.24812 F1800.000
G1 X174.783 Y17.301 E271.26913
G1 X175.179 Y17.396 E271.29309
G1 X175.431 Y17.482 E271.30873
G1 X175.980 Y17.749 E271.34457
G1 X176.335 Y17.990 E271.36976
G1 X176.661 Y18.272 E271.39511
G1 X176.972 Y18.615 E271.42229
G1 X177.154 Y18.864 E271.44042
G1 X177.411 Y19.319 E271.47109
G1 X177.492 Y19.502 E271.48285
G1 X177.593 Y19.785 E271.50053
G1 X177.698 Y20.212 E271.52636
G1 X177.746 Y20.571 E271.54758
G1 X177.762 Y20.982 E271.57176
G1 X177.761 Y169.052 E280.26876
G1 X177.746 Y169.428 E280.29088
G1 X177.699 Y169.783 E280.31186
