; generated by Slic3r 1.2.9 on 2016-12-31 at 16:22:41

; Perimeter Width ajustées au diamètre de buse de 0,4mm

; external perimeters extrusion width = 0.40mm
; perimeters extrusion width = 0.68mm
; infill extrusion width = 0.87mm
; solid infill extrusion width = 0.68mm
; top infill extrusion width = 0.68mm
; support material extrusion width = 0.18mm

M190 S90 ; set bed temperature
M104 S250 ; set temperature
G91 ;      coordonnees en relatif
G1 Z20 ; relevage de 20mm en Z
G90 ;      coordonnee en absolue
G28 ;      homing en X, Y et Z
G29 ;      Auto leveling


M109 S250 ; wait for temperature to be reached
G21 ; set units to millimeters
G90 ; use absolute coordinates
M82 ; use absolute distances for extrusion
G92 E0
G1 Z0.350 F10800.000
G1 E-1.00000 F1800.00000
G92 E0
G1 X22.007 Y17.853 F10800.000
G1 E1.00000 F1800.00000
G1 X22.277 Y17.536 E1.02446 F1800.000
G1 X22.709 Y17.124 E1.05954
G1 X23.085 Y16.838 E1.08730
G1 X23.415 Y16.626 E1.11032
G1 X23.982 Y16.343 E1.14751
G1 X24.370 Y16.201 E1.17183
G1 X24.948 Y16.055 E1.20683
G1 X25.449 Y15.984 E1.23654
G1 X25.974 Y15.964 E1.26743
G1 X40.015 Y15.964 E2.09209
G1 X42.379 Y18.328 E2.28850
G1 X42.379 Y20.715 E2.42868 F1800.000
G1 X42.628 Y20.964 E2.44935
G1 X64.057 Y20.964 E3.70801
G1 X64.306 Y20.715 E3.72869
G1 X64.306 Y18.328 E3.86887
G1 X66.671 Y15.964 E4.06527
G1 X126.672 Y15.964 E7.58948
G1 X129.036 Y18.328 E7.78589
G1 X129.036 Y20.715 E7.92607
G1 X129.285 Y20.964 E7.94674
G1 X150.715 Y20.964 E9.20540
G1 X150.964 Y20.715 E9.22608
G1 X150.964 Y18.328 E9.36626
G1 X153.328 Y15.964 E9.56266
G1 X174.384 Y15.973 E10.79941
G1 X174.888 Y16.026 E10.82919
G1 X175.415 Y16.137 E10.86079
G1 X175.973 Y16.325 E10.89537
G1 X176.341 Y16.495 E10.91921
G1 X176.670 Y16.677 E10.94126
G1 X177.147 Y17.007 E10.97531
G1 X177.464 Y17.277 E10.99983
G1 X177.875 Y17.707 E11.03476
G1 X178.249 Y18.210 E11.07155
G1 X178.491 Y18.634 E11.10021
G1 X178.656 Y18.981 E11.12278
G1 X178.799 Y19.370 E11.14716
G1 X178.902 Y19.750 E11.17024
G1 X178.973 Y20.106 E11.19157
G1 X179.028 Y20.623 E11.22210
G1 X179.036 Y41.672 E12.45845
G1 X176.672 Y44.036 E12.65485
G1 X174.285 Y44.036 E12.79503
G1 X174.036 Y44.285 E12.81571
G1 X174.036 Y65.715 E14.07437
G1 X174.285 Y65.964 E14.09505
G1 X176.672 Y65.964 E14.23522
G1 X179.036 Y68.328 E14.43163
G1 X179.036 Y121.672 E17.56482
G1 X176.672 Y124.036 E17.76122
G1 X174.285 Y124.036 E17.90140
G1 X174.036 Y124.285 E17.92208
G1 X174.036 Y145.715 E19.18074
G1 X174.285 Y145.964 E19.20142
G1 X176.672 Y145.964 E19.34159
G1 X179.036 Y148.328 E19.53800
G1 X179.027 Y169.385 E20.77477
G1 X178.974 Y169.890 E20.80464
G1 X178.862 Y170.416 E20.83620
G1 X178.674 Y170.973 E20.87073
G1 X178.505 Y171.341 E20.89453
G1 X178.324 Y171.669 E20.91656
G1 X177.993 Y172.146 E20.95063
G1 X177.725 Y172.462 E20.97495
G1 X177.293 Y172.875 E21.01003
G1 X176.789 Y173.250 E21.04697
G1 X176.365 Y173.491 E21.07562
G1 X176.018 Y173.657 E21.09818
G1 X175.630 Y173.799 E21.12247
G1 X175.251 Y173.902 E21.14556
G1 X174.895 Y173.973 E21.16689
G1 X174.377 Y174.028 E21.19745
G1 X153.328 Y174.036 E22.43378
G1 X150.964 Y171.672 E22.63019
G1 X150.964 Y169.285 E22.77037
G1 X150.715 Y169.036 E22.79104
G1 X129.285 Y169.036 E24.04971
G1 X129.036 Y169.285 E24.07038
G1 X129.036 Y171.672 E24.21056
G1 X126.672 Y174.036 E24.40697
G1 X66.671 Y174.036 E27.93117
G1 X64.306 Y171.672 E28.12758
G1 X64.306 Y169.285 E28.26776
G1 X64.057 Y169.036 E28.28843
G1 X42.628 Y169.036 E29.54710
G1 X42.379 Y169.285 E29.56777
G1 X42.379 Y171.672 E29.70795
G1 X40.015 Y174.036 E29.90436
G1 X25.974 Y174.036 E30.72901
G1 X25.449 Y174.015 E30.75989
G1 X24.957 Y173.947 E30.78907
G1 X24.585 Y173.863 E30.81146
G1 X24.210 Y173.742 E30.83463
G1 X23.857 Y173.601 E30.85696
G1 X23.486 Y173.415 E30.88131
G1 X23.091 Y173.167 E30.90874
G1 X22.685 Y172.853 E30.93887
G1 X22.416 Y172.607 E30.96029
G1 X22.124 Y172.292 E30.98551
G1 X21.751 Y171.790 E31.02225
G1 X21.509 Y171.366 E31.05092
G1 X21.343 Y171.017 E31.07362
G1 X21.201 Y170.630 E31.09782
G1 X21.098 Y170.250 E31.12093
G1 X21.026 Y169.893 E31.14237
G1 X20.972 Y169.377 E31.17279
G1 X20.964 Y148.328 E32.40914
G1 X23.328 Y145.964 E32.60554
G1 X25.715 Y145.964 E32.74572
G1 X25.964 Y145.715 E32.76640
G1 X25.964 Y124.285 E34.02506
G1 X25.715 Y124.036 E34.04573
G1 X23.328 Y124.036 E34.18591
G1 X20.964 Y121.672 E34.38232
G1 X20.964 Y68.328 E37.51551
G1 X23.328 Y65.964 E37.71191
G1 X25.715 Y65.964 E37.85209
G1 X25.964 Y65.715 E37.87277
G1 X25.964 Y44.285 E39.13143
G1 X25.715 Y44.036 E39.15210
G1 X23.328 Y44.036 E39.29228
G1 X20.964 Y41.672 E39.48869
G1 X20.973 Y20.616 E40.72542
G1 X21.053 Y19.958 E40.76437
G1 X21.137 Y19.586 E40.78674
G1 X21.279 Y19.149 E40.81374
G1 X21.399 Y18.857 E40.83226
G1 X21.585 Y18.486 E40.85670
G1 X21.971 Y17.901 E40.89782
G1 X22.340 Y18.117 F10800.000
G1 X22.589 Y17.825 E40.92036 F1800.000
G1 X22.984 Y17.448 E40.95245
G1 X23.330 Y17.185 E40.97799
G1 X23.626 Y16.995 E40.99863
G1 X24.144 Y16.736 E41.03266
G1 X24.503 Y16.605 E41.05513
G1 X25.030 Y16.471 E41.08706
G1 X25.488 Y16.408 E41.11422
G1 X25.977 Y16.388 E41.14296
G1 X39.839 Y16.388 E41.95712
G1 X41.954 Y18.504 E42.13285 F1800.000
G1 X41.954 Y21.140 E42.28765
G1 X42.203 Y21.388 E42.30833
G1 X64.482 Y21.388 E43.61690
G1 X64.731 Y21.140 E43.63758
G1 X64.731 Y18.504 E43.79237
G1 X66.847 Y16.388 E43.96811
G1 X126.496 Y16.388 E47.47164
G1 X128.612 Y18.504 E47.64737
G1 X128.612 Y21.140 E47.80217
G1 X128.860 Y21.388 E47.82284
G1 X151.140 Y21.388 E49.13142
G1 X151.388 Y21.140 E49.15209
G1 X151.388 Y18.504 E49.30689
G1 X153.504 Y16.388 E49.48262
G1 X174.362 Y16.397 E50.70775
G1 X174.823 Y16.446 E50.73497
G1 X175.304 Y16.548 E50.76385
G1 X175.813 Y16.719 E50.79541
G1 X176.152 Y16.876 E50.81733
G1 X176.447 Y17.038 E50.83709
G1 X176.882 Y17.340 E50.86819
G1 X177.175 Y17.589 E50.89079
G1 X177.551 Y17.982 E50.92274
G1 X177.893 Y18.442 E50.95640
G1 X178.115 Y18.832 E50.98278
G1 X178.263 Y19.143 E51.00301
G1 X178.395 Y19.503 E51.02551
G1 X178.488 Y19.843 E51.04620
G1 X178.554 Y20.171 E51.06588
G1 X178.603 Y20.644 E51.09377
G1 X178.612 Y41.496 E52.31854
G1 X176.496 Y43.612 E52.49427
G1 X173.860 Y43.612 E52.64907
G1 X173.612 Y43.860 E52.66974
G1 X173.612 Y66.140 E53.97832
G1 X173.860 Y66.388 E53.99899
G1 X176.496 Y66.388 E54.15379
G1 X178.612 Y68.504 E54.32952
G1 X178.612 Y121.496 E57.44204
G1 X176.496 Y123.612 E57.61777
G1 X173.860 Y123.612 E57.77257
G1 X173.612 Y123.860 E57.79324
G1 X173.612 Y146.140 E59.10182
G1 X173.860 Y146.388 E59.12249
G1 X176.496 Y146.388 E59.27729
G1 X178.612 Y148.504 E59.45302
G1 X178.603 Y169.363 E60.67817
G1 X178.554 Y169.825 E60.70547
G1 X178.452 Y170.305 E60.73431
G1 X178.280 Y170.814 E60.76583
G1 X178.124 Y171.152 E60.78771
G1 X177.962 Y171.446 E60.80746
G1 X177.660 Y171.882 E60.83858
G1 X177.413 Y172.173 E60.86100
G1 X177.018 Y172.550 E60.89309
G1 X176.557 Y172.894 E60.92688
G1 X176.167 Y173.116 E60.95323
G1 X175.856 Y173.264 E60.97346
G1 X175.497 Y173.395 E60.99589
G1 X175.157 Y173.488 E61.01659
G1 X174.829 Y173.553 E61.03626
G1 X174.356 Y173.603 E61.06417
G1 X153.504 Y173.612 E62.28894
G1 X151.388 Y171.496 E62.46467
G1 X151.388 Y168.860 E62.61947
G1 X151.140 Y168.612 E62.64014
G1 X128.860 Y168.612 E63.94872
G1 X128.612 Y168.860 E63.96939
G1 X128.612 Y171.496 E64.12419
G1 X126.496 Y173.612 E64.29992
G1 X66.847 Y173.612 E67.80345
G1 X64.731 Y171.496 E67.97919
G1 X64.731 Y168.860 E68.13398
G1 X64.482 Y168.612 E68.15466
G1 X42.203 Y168.612 E69.46323
G1 X41.954 Y168.860 E69.48391
G1 X41.954 Y171.496 E69.63871
G1 X39.839 Y173.612 E69.81444
G1 X25.977 Y173.612 E70.62860
G1 X25.489 Y173.592 E70.65732
G1 X25.039 Y173.530 E70.68400
G1 X24.696 Y173.452 E70.70464
G1 X24.034 Y173.215 E70.74595
G1 X23.693 Y173.044 E70.76836
G1 X23.330 Y172.816 E70.79350
G1 X22.959 Y172.529 E70.82111
G1 X22.718 Y172.307 E70.84032
G1 X22.448 Y172.017 E70.86358
G1 X22.107 Y171.558 E70.89720
G1 X21.885 Y171.167 E70.92358
G1 X21.736 Y170.855 E70.94392
G1 X21.605 Y170.497 E70.96627
G1 X21.512 Y170.157 E70.98699
G1 X21.446 Y169.827 E71.00676
G1 X21.397 Y169.356 E71.03455
G1 X21.388 Y148.504 E72.25932
G1 X23.504 Y146.388 E72.43506
G1 X26.140 Y146.388 E72.58985
G1 X26.388 Y146.140 E72.61053
G1 X26.388 Y123.860 E73.91910
G1 X26.140 Y123.612 E73.93978
G1 X23.504 Y123.612 E74.09458
G1 X21.388 Y121.496 E74.27031
G1 X21.388 Y68.504 E77.38282
G1 X23.504 Y66.388 E77.55855
G1 X26.140 Y66.388 E77.71335
G1 X26.388 Y66.140 E77.73403
G1 X26.388 Y43.860 E79.04260
G1 X26.140 Y43.612 E79.06328
G1 X23.504 Y43.612 E79.21807
G1 X21.388 Y41.496 E79.39381
G1 X21.397 Y20.638 E80.61891
G1 X21.470 Y20.039 E80.65434
G1 X21.548 Y19.697 E80.67496
G1 X21.678 Y19.296 E80.69971
G1 X21.785 Y19.034 E80.71632
G1 X21.957 Y18.692 E80.73881
G1 X22.304 Y18.165 E80.77586
G1 X22.673 Y18.382 F10800.000
G1 X22.900 Y18.114 E80.79648 F1800.000
G1 X23.258 Y17.772 E80.82558
G1 X23.575 Y17.532 E80.84890
G1 X23.836 Y17.364 E80.86716
G1 X24.307 Y17.129 E80.89804
G1 X24.636 Y17.009 E80.91864
G1 X25.113 Y16.888 E80.94752
G1 X25.528 Y16.831 E80.97213
G1 X25.980 Y16.813 E80.99871
G1 X39.663 Y16.813 E81.80237
G1 X41.529 Y18.680 E81.95743
G1 X41.529 Y21.564 E82.12685 F1800.000
G1 X41.778 Y21.813 E82.14752
G1 X64.907 Y21.813 E83.50601
G1 X65.156 Y21.564 E83.52669
G1 X65.156 Y18.680 E83.69610
G1 X67.023 Y16.813 E83.85116
G1 X126.320 Y16.813 E87.33402
G1 X128.187 Y18.680 E87.48908
G1 X128.187 Y21.564 E87.65849
G1 X128.436 Y21.813 E87.67917
G1 X151.564 Y21.813 E89.03766
G1 X151.813 Y21.564 E89.05833
G1 X151.813 Y18.680 E89.22775
G1 X153.680 Y16.813 E89.38280
G1 X174.340 Y16.821 E90.59631
G1 X174.758 Y16.866 E90.62097
G1 X175.194 Y16.958 E90.64712
G1 X175.654 Y17.113 E90.67567
G1 X175.963 Y17.256 E90.69567
G1 X176.224 Y17.400 E90.71315
G1 X176.618 Y17.673 E90.74130
G1 X176.886 Y17.901 E90.76197
G1 X177.227 Y18.257 E90.79095
G1 X177.537 Y18.674 E90.82147
G1 X177.871 Y19.306 E90.86343
G1 X177.991 Y19.636 E90.88407
G1 X178.073 Y19.936 E90.90236
G1 X178.134 Y20.237 E90.92038
G1 X178.179 Y20.665 E90.94563
G1 X178.187 Y41.320 E92.15883
G1 X176.320 Y43.187 E92.31389
G1 X173.436 Y43.187 E92.48330
G1 X173.187 Y43.436 E92.50398
G1 X173.187 Y66.564 E93.86247
G1 X173.436 Y66.813 E93.88314
G1 X176.320 Y66.813 E94.05256
G1 X178.187 Y68.680 E94.20761
G1 X178.187 Y121.320 E97.29945
G1 X176.320 Y123.187 E97.45451
G1 X173.436 Y123.187 E97.62393
G1 X173.187 Y123.436 E97.64460
G1 X173.187 Y146.564 E99.00309
G1 X173.436 Y146.813 E99.02376
G1 X176.320 Y146.813 E99.19318
G1 X178.187 Y148.680 E99.34824
G1 X178.179 Y169.341 E100.56176
G1 X178.134 Y169.760 E100.58650
G1 X178.042 Y170.194 E100.61261
G1 X177.886 Y170.654 E100.64113
G1 X177.744 Y170.963 E100.66109
G1 X177.600 Y171.223 E100.67856
G1 X177.328 Y171.618 E100.70673
G1 X177.101 Y171.884 E100.72724
G1 X176.743 Y172.226 E100.75633
G1 X176.325 Y172.538 E100.78698
G1 X175.693 Y172.871 E100.82890
G1 X175.364 Y172.991 E100.84948
G1 X175.064 Y173.073 E100.86778
G1 X174.763 Y173.134 E100.88580
G1 X174.335 Y173.179 E100.91107
G1 X153.680 Y173.187 E102.12426
G1 X151.813 Y171.320 E102.27932
G1 X151.813 Y168.436 E102.44874
G1 X151.564 Y168.187 E102.46941
G1 X128.436 Y168.187 E103.82790
G1 X128.187 Y168.436 E103.84857
G1 X128.187 Y171.320 E104.01799
G1 X126.320 Y173.187 E104.17305
G1 X67.023 Y173.187 E107.65591
G1 X65.156 Y171.320 E107.81096
G1 X65.156 Y168.436 E107.98038
G1 X64.907 Y168.187 E108.00105
G1 X41.778 Y168.187 E109.35954
G1 X41.529 Y168.436 E109.38022
G1 X41.529 Y171.320 E109.54963
G1 X39.663 Y173.187 E109.70469
G1 X25.659 Y173.179 E110.52720
G1 X25.241 Y173.134 E110.55191
G1 X24.903 Y173.066 E110.57216
G1 X24.491 Y172.941 E110.59745
G1 X24.211 Y172.828 E110.61515
G1 X23.900 Y172.672 E110.63562
G1 X23.570 Y172.465 E110.65847
G1 X23.232 Y172.204 E110.68356
G1 X23.019 Y172.008 E110.70056
G1 X22.772 Y171.742 E110.72186
G1 X22.463 Y171.325 E110.75235
G1 X22.129 Y170.692 E110.79441
G1 X22.009 Y170.364 E110.81491
G1 X21.927 Y170.064 E110.83323
G1 X21.866 Y169.761 E110.85133
G1 X21.821 Y169.335 E110.87650
G1 X21.813 Y148.680 E112.08970
G1 X23.680 Y146.813 E112.24475
G1 X26.564 Y146.813 E112.41417
G1 X26.813 Y146.564 E112.43484
G1 X26.813 Y123.436 E113.79333
G1 X26.564 Y123.187 E113.81401
G1 X23.680 Y123.187 E113.98342
G1 X21.813 Y121.320 E114.13848
G1 X21.813 Y68.680 E117.23032
G1 X23.680 Y66.813 E117.38538
G1 X26.564 Y66.813 E117.55479
G1 X26.813 Y66.564 E117.57547
G1 X26.813 Y43.436 E118.93396
G1 X26.564 Y43.187 E118.95463
G1 X23.680 Y43.187 E119.12405
G1 X21.813 Y41.320 E119.27911
G1 X21.821 Y20.660 E120.49260
G1 X21.887 Y20.121 E120.52450
G1 X21.958 Y19.807 E120.54337
G1 X22.077 Y19.443 E120.56586
G1 X22.328 Y18.899 E120.60107
G1 X22.636 Y18.429 E120.63406
G1 X23.006 Y18.646 F10800.000
G1 X23.212 Y18.403 E120.65276 F1800.000
G1 X23.533 Y18.096 E120.67887
G1 X24.047 Y17.733 E120.71582
G1 X24.469 Y17.522 E120.74355
G1 X24.769 Y17.413 E120.76229
G1 X25.195 Y17.305 E120.78811
G1 X25.567 Y17.254 E120.81016
G1 X25.983 Y17.238 E120.83459
G1 X39.487 Y17.238 E121.62776
G1 X41.104 Y18.856 E121.76214 F1800.000
G1 X41.104 Y21.989 E121.94618
G1 X41.353 Y22.238 E121.96685
G1 X65.332 Y22.238 E123.37525
G1 X65.581 Y21.989 E123.39593
G1 X65.581 Y18.856 E123.57996
G1 X67.199 Y17.238 E123.71435
G1 X126.144 Y17.238 E127.17653
G1 X127.762 Y18.856 E127.31091
G1 X127.762 Y21.989 E127.49495
G1 X128.011 Y22.238 E127.51562
G1 X151.989 Y22.238 E128.92402
G1 X152.238 Y21.989 E128.94470
G1 X152.238 Y18.856 E129.12873
G1 X153.856 Y17.238 E129.26312
G1 X174.319 Y17.246 E130.46500
G1 X174.693 Y17.286 E130.48710
G1 X175.083 Y17.369 E130.51053
G1 X175.495 Y17.507 E130.53607
G1 X175.774 Y17.637 E130.55414
G1 X176.001 Y17.762 E130.56934
G1 X176.354 Y18.005 E130.59454
G1 X176.597 Y18.212 E130.61328
G1 X176.903 Y18.532 E130.63929
G1 X177.181 Y18.907 E130.66668
G1 X177.478 Y19.468 E130.70401
G1 X177.659 Y20.030 E130.73865
G1 X177.714 Y20.303 E130.75501
G1 X177.754 Y20.686 E130.77762
G1 X177.762 Y41.144 E131.97925
G1 X176.144 Y42.762 E132.11363
G1 X173.011 Y42.762 E132.29767
G1 X172.762 Y43.011 E132.31834
G1 X172.762 Y66.989 E133.72674
G1 X173.011 Y67.238 E133.74742
G1 X176.144 Y67.238 E133.93145
G1 X177.762 Y68.856 E134.06584
G1 X177.762 Y121.144 E137.13700
G1 X176.144 Y122.762 E137.27138
G1 X173.011 Y122.762 E137.45542
G1 X172.762 Y123.011 E137.47609
G1 X172.762 Y146.989 E138.88449
G1 X173.011 Y147.238 E138.90517
G1 X176.144 Y147.238 E139.08920
G1 X177.762 Y148.856 E139.22359
G1 X177.754 Y169.319 E140.42549
G1 X177.714 Y169.694 E140.44765
G1 X177.631 Y170.084 E140.47105
G1 X177.492 Y170.495 E140.49655
G1 X177.363 Y170.774 E140.51460
G1 X177.238 Y171.000 E140.52978
G1 X176.995 Y171.354 E140.55500
G1 X176.790 Y171.595 E140.57361
G1 X176.468 Y171.902 E140.59972
G1 X176.093 Y172.182 E140.62721
G1 X175.531 Y172.478 E140.66452
G1 X174.970 Y172.659 E140.69911
G1 X174.697 Y172.714 E140.71547
G1 X174.314 Y172.754 E140.73810
G1 X153.856 Y172.762 E141.93972
G1 X152.238 Y171.144 E142.07410
G1 X152.238 Y168.011 E142.25814
G1 X151.989 Y167.762 E142.27881
G1 X128.011 Y167.762 E143.68721
G1 X127.762 Y168.011 E143.70789
G1 X127.762 Y171.144 E143.89192
G1 X126.144 Y172.762 E144.02631
G1 X67.199 Y172.762 E147.48849
G1 X65.581 Y171.144 E147.62287
G1 X65.581 Y168.011 E147.80691
G1 X65.332 Y167.762 E147.82758
G1 X41.353 Y167.762 E149.23598
G1 X41.104 Y168.011 E149.25666
G1 X41.104 Y171.144 E149.44069
G1 X39.487 Y172.762 E149.57508
G1 X25.681 Y172.754 E150.38597
G1 X25.306 Y172.714 E150.40811
G1 X25.001 Y172.652 E150.42637
G1 X24.632 Y172.540 E150.44908
G1 X24.388 Y172.442 E150.46447
G1 X24.106 Y172.301 E150.48300
G1 X23.810 Y172.115 E150.50356
G1 X23.321 Y171.709 E150.54088
G1 X23.097 Y171.467 E150.56024
G1 X22.819 Y171.093 E150.58760
G1 X22.521 Y170.530 E150.62501
G1 X22.341 Y169.970 E150.65956
G1 X22.286 Y169.696 E150.67599
G1 X22.246 Y169.314 E150.69853
G1 X22.238 Y148.856 E151.90016
G1 X23.856 Y147.238 E152.03454
G1 X26.989 Y147.238 E152.21858
G1 X27.238 Y146.989 E152.23925
G1 X27.238 Y123.011 E153.64765
G1 X26.989 Y122.762 E153.66833
G1 X23.856 Y122.762 E153.85236
G1 X22.238 Y121.144 E153.98674
G1 X22.238 Y68.856 E157.05791
G1 X23.856 Y67.238 E157.19229
G1 X26.989 Y67.238 E157.37633
G1 X27.238 Y66.989 E157.39700
